
def my_script():
	movel(p[0.7060,-0.3360,0.0350,0.0000,0.0000,0.0000], a = 0.80, v = 0.06, r = 0.0156)
	movel(p[0.7011,-0.3051,0.0350,0.0000,0.0000,0.0000], a = 0.80, v = 0.06, r = 0.0156)
	movel(p[0.6869,-0.2772,0.0351,0.0000,0.0000,0.0000], a = 0.80, v = 0.06, r = 0.0156)
	movel(p[0.6648,-0.2551,0.0352,0.0000,0.0000,0.0000], a = 0.80, v = 0.06, r = 0.0156)
	movel(p[0.6369,-0.2409,0.0352,0.0000,0.0000,0.0000], a = 0.80, v = 0.06, r = 0.0156)
	movel(p[0.6060,-0.2360,0.0352,0.0000,0.0000,0.0000], a = 0.80, v = 0.06, r = 0.0156)
	movel(p[0.5751,-0.2409,0.0353,0.0000,0.0000,0.0000], a = 0.80, v = 0.06, r = 0.0156)
	movel(p[0.5472,-0.2551,0.0353,0.0000,0.0000,0.0000], a = 0.80, v = 0.06, r = 0.0156)
	movel(p[0.5251,-0.2772,0.0354,0.0000,0.0000,0.0000], a = 0.80, v = 0.06, r = 0.0156)
	movel(p[0.5109,-0.3051,0.0355,0.0000,0.0000,0.0000], a = 0.80, v = 0.06, r = 0.0156)
	movel(p[0.5060,-0.3360,0.0355,0.0000,0.0000,0.0000], a = 0.80, v = 0.06, r = 0.0156)
	movel(p[0.5109,-0.3669,0.0355,0.0000,0.0000,0.0000], a = 0.80, v = 0.06, r = 0.0156)
	movel(p[0.5251,-0.3948,0.0356,0.0000,0.0000,0.0000], a = 0.80, v = 0.06, r = 0.0156)
	movel(p[0.5472,-0.4169,0.0357,0.0000,0.0000,0.0000], a = 0.80, v = 0.06, r = 0.0156)
	movel(p[0.5751,-0.4311,0.0357,0.0000,0.0000,0.0000], a = 0.80, v = 0.06, r = 0.0156)
	movel(p[0.6060,-0.4360,0.0357,0.0000,0.0000,0.0000], a = 0.80, v = 0.06, r = 0.0156)
	movel(p[0.6369,-0.4311,0.0358,0.0000,0.0000,0.0000], a = 0.80, v = 0.06, r = 0.0156)
	movel(p[0.6648,-0.4169,0.0358,0.0000,0.0000,0.0000], a = 0.80, v = 0.06, r = 0.0156)
	movel(p[0.6869,-0.3948,0.0359,0.0000,0.0000,0.0000], a = 0.80, v = 0.06, r = 0.0156)
	movel(p[0.7011,-0.3669,0.0360,0.0000,0.0000,0.0000], a = 0.80, v = 0.06, r = 0.0156)
	movel(p[0.6060,-0.3360,0.0350,0.0000,0.0000,0.0000], a = 0.80, v = 0.06, r = 0.0156)
	movel(p[0.6060,-0.3360,0.0920,0.0000,0.0000,0.0000], a = 0.80, v = 0.06, r = 0.0100)
	movel(p[0.6060,-0.3360,0.1120,0.0000,0.0000,0.0000], a = 0.80, v = 0.01, r = 0.0059)
	movel(p[0.6060,-0.3353,0.1239,0.0000,0.0000,0.0000], a = 0.80, v = 0.01, r = 0.0059)
	movel(p[0.6060,-0.3335,0.1356,0.0000,0.0000,0.0000], a = 0.80, v = 0.01, r = 0.0059)
	movel(p[0.6060,-0.3310,0.1472,0.0000,0.0000,0.0000], a = 0.80, v = 0.01, r = 0.0059)
	movel(p[0.6060,-0.3283,0.1588,0.0000,0.0000,0.0000], a = 0.80, v = 0.01, r = 0.0059)
	movel(p[0.6060,-0.3259,0.1704,0.0000,0.0000,0.0000], a = 0.80, v = 0.01, r = 0.0059)
	movel(p[0.6060,-0.3246,0.1822,0.0000,0.0000,0.0000], a = 0.80, v = 0.01, r = 0.0059)
	movel(p[0.6060,-0.3249,0.1941,0.0000,0.0000,0.0000], a = 0.80, v = 0.01, r = 0.0059)
	movel(p[0.6060,-0.3271,0.2058,0.0000,0.0000,0.0000], a = 0.80, v = 0.01, r = 0.0059)
	movel(p[0.6060,-0.3311,0.2170,0.0000,0.0000,0.0000], a = 0.80, v = 0.01, r = 0.0059)
	movel(p[0.6060,-0.3363,0.2276,0.0000,0.0000,0.0000], a = 0.80, v = 0.01, r = 0.0059)
	movel(p[0.6060,-0.3423,0.2379,0.0000,0.0000,0.0000], a = 0.80, v = 0.01, r = 0.0059)
	movel(p[0.6060,-0.3487,0.2479,0.0000,0.0000,0.0000], a = 0.80, v = 0.01, r = 0.0059)
	movel(p[0.6060,-0.3549,0.2581,0.0000,0.0000,0.0000], a = 0.80, v = 0.01, r = 0.0059)
	movel(p[0.6060,-0.3604,0.2686,0.0000,0.0000,0.0000], a = 0.80, v = 0.01, r = 0.0059)
	movel(p[0.6060,-0.3646,0.2797,0.0000,0.0000,0.0000], a = 0.80, v = 0.01, r = 0.0059)
	movel(p[0.6060,-0.3663,0.2914,0.0000,0.0000,0.0000], a = 0.80, v = 0.01, r = 0.0059)
	movel(p[0.6060,-0.3647,0.3031,0.0000,0.0000,0.0000], a = 0.80, v = 0.01, r = 0.0059)
	movel(p[0.6060,-0.3601,0.3140,0.0000,0.0000,0.0000], a = 0.80, v = 0.01, r = 0.0059)
	movel(p[0.6060,-0.3534,0.3238,0.0000,0.0000,0.0000], a = 0.80, v = 0.01, r = 0.0059)
	movel(p[0.6060,-0.3455,0.3327,0.0000,0.0000,0.0000], a = 0.80, v = 0.01, r = 0.0059)
	movel(p[0.6060,-0.3370,0.3410,0.0000,0.0000,0.0000], a = 0.80, v = 0.01, r = 0.0059)
	movel(p[0.6060,-0.3282,0.3490,0.0000,0.0000,0.0000], a = 0.80, v = 0.01, r = 0.0059)
	movel(p[0.6060,-0.3193,0.3569,0.0000,0.0000,0.0000], a = 0.80, v = 0.01, r = 0.0059)
	movel(p[0.6060,-0.3105,0.3649,0.0000,0.0000,0.0000], a = 0.80, v = 0.01, r = 0.0059)
	movel(p[0.6060,-0.3021,0.3733,0.0000,0.0000,0.0000], a = 0.80, v = 0.01, r = 0.0059)
	movel(p[0.6060,-0.2945,0.3824,0.0000,0.0000,0.0000], a = 0.80, v = 0.01, r = 0.0059)
	movel(p[0.6060,-0.2885,0.3926,0.0000,0.0000,0.0000], a = 0.80, v = 0.01, r = 0.0059)
	movel(p[0.6060,-0.2861,0.4042,0.0000,0.0000,0.0000], a = 0.80, v = 0.01, r = 0.0059)
	movel(p[0.6060,-0.2887,0.4157,0.0000,0.0000,0.0000], a = 0.80, v = 0.01, r = 0.0059)
	movel(p[0.6060,-0.2952,0.4256,0.0000,0.0000,0.0000], a = 0.80, v = 0.01, r = 0.0059)
	movel(p[0.6060,-0.3035,0.4341,0.0000,0.0000,0.0000], a = 0.80, v = 0.01, r = 0.0059)
	movel(p[0.6060,-0.3127,0.4415,0.0000,0.0000,0.0000], a = 0.80, v = 0.01, r = 0.0059)
	movel(p[0.6060,-0.3225,0.4484,0.0000,0.0000,0.0000], a = 0.80, v = 0.01, r = 0.0059)
	movel(p[0.6060,-0.3325,0.4548,0.0000,0.0000,0.0000], a = 0.80, v = 0.01, r = 0.0059)
	movel(p[0.6060,-0.3426,0.4610,0.0000,0.0000,0.0000], a = 0.80, v = 0.01, r = 0.0059)
	movel(p[0.6060,-0.3528,0.4672,0.0000,0.0000,0.0000], a = 0.80, v = 0.01, r = 0.0059)
	movel(p[0.6060,-0.3629,0.4734,0.0000,0.0000,0.0000], a = 0.80, v = 0.01, r = 0.0059)
	movel(p[0.6060,-0.3729,0.4798,0.0000,0.0000,0.0000], a = 0.80, v = 0.01, r = 0.0059)
	movel(p[0.6060,-0.3826,0.4866,0.0000,0.0000,0.0000], a = 0.80, v = 0.01, r = 0.0059)
	movel(p[0.6060,-0.3918,0.4941,0.0000,0.0000,0.0000], a = 0.80, v = 0.01, r = 0.0059)
	movel(p[0.6060,-0.3999,0.5028,0.0000,0.0000,0.0000], a = 0.80, v = 0.01, r = 0.0059)
	movel(p[0.6060,-0.4051,0.5134,0.0000,0.0000,0.0000], a = 0.80, v = 0.01, r = 0.0059)
	movel(p[0.6060,-0.4042,0.5251,0.0000,0.0000,0.0000], a = 0.80, v = 0.01, r = 0.0059)
	movel(p[0.6060,-0.3977,0.5350,0.0000,0.0000,0.0000], a = 0.80, v = 0.01, r = 0.0059)
	movel(p[0.6060,-0.3889,0.5429,0.0000,0.0000,0.0000], a = 0.80, v = 0.01, r = 0.0059)
	movel(p[0.6060,-0.3791,0.5497,0.0000,0.0000,0.0000], a = 0.80, v = 0.01, r = 0.0059)
	movel(p[0.6060,-0.3689,0.5557,0.0000,0.0000,0.0000], a = 0.80, v = 0.01, r = 0.0059)
	movel(p[0.6060,-0.3584,0.5613,0.0000,0.0000,0.0000], a = 0.80, v = 0.01, r = 0.0059)
	movel(p[0.6060,-0.3477,0.5665,0.0000,0.0000,0.0000], a = 0.80, v = 0.01, r = 0.0059)
	movel(p[0.6060,-0.3370,0.5716,0.0000,0.0000,0.0000], a = 0.80, v = 0.01, r = 0.0059)
	movel(p[0.6060,-0.3262,0.5765,0.0000,0.0000,0.0000], a = 0.80, v = 0.01, r = 0.0059)
	movel(p[0.6060,-0.3154,0.5815,0.0000,0.0000,0.0000], a = 0.80, v = 0.01, r = 0.0059)
	movel(p[0.6060,-0.3046,0.5865,0.0000,0.0000,0.0000], a = 0.80, v = 0.01, r = 0.0059)
	movel(p[0.6060,-0.2939,0.5916,0.0000,0.0000,0.0000], a = 0.80, v = 0.01, r = 0.0059)
	movel(p[0.6060,-0.2833,0.5970,0.0000,0.0000,0.0000], a = 0.80, v = 0.01, r = 0.0059)
	movel(p[0.6060,-0.2729,0.6028,0.0000,0.0000,0.0000], a = 0.80, v = 0.01, r = 0.0059)
	movel(p[0.6060,-0.2630,0.6094,0.0000,0.0000,0.0000], a = 0.80, v = 0.01, r = 0.0059)
	movel(p[0.6060,-0.2540,0.6171,0.0000,0.0000,0.0000], a = 0.80, v = 0.01, r = 0.0059)
	movel(p[0.6060,-0.2475,0.6270,0.0000,0.0000,0.0000], a = 0.80, v = 0.01, r = 0.0058)
	movel(p[0.6060,-0.2481,0.6385,0.0000,0.0000,0.0000], a = 0.80, v = 0.01, r = 0.0058)
	movel(p[0.6060,-0.2552,0.6480,0.0000,0.0000,0.0000], a = 0.80, v = 0.01, r = 0.0058)
	movel(p[0.6060,-0.2646,0.6552,0.0000,0.0000,0.0000], a = 0.80, v = 0.01, r = 0.0058)
	movel(p[0.6060,-0.2748,0.6613,0.0000,0.0000,0.0000], a = 0.80, v = 0.01, r = 0.0058)
	movel(p[0.6060,-0.2854,0.6666,0.0000,0.0000,0.0000], a = 0.80, v = 0.01, r = 0.0058)
	movel(p[0.6060,-0.2963,0.6714,0.0000,0.0000,0.0000], a = 0.80, v = 0.01, r = 0.0058)
	movel(p[0.6060,-0.3073,0.6760,0.0000,0.0000,0.0000], a = 0.80, v = 0.01, r = 0.0058)
	movel(p[0.6060,-0.3183,0.6804,0.0000,0.0000,0.0000], a = 0.80, v = 0.01, r = 0.0058)
	movel(p[0.6060,-0.3294,0.6846,0.0000,0.0000,0.0000], a = 0.80, v = 0.01, r = 0.0058)
	movel(p[0.6060,-0.3406,0.6887,0.0000,0.0000,0.0000], a = 0.80, v = 0.03, r = 0.0058)
	movel(p[0.6060,-0.3517,0.6928,0.0000,0.0000,0.0000], a = 0.80, v = 0.03, r = 0.0058)
	movel(p[0.6060,-0.3629,0.6969,0.0000,0.0000,0.0000], a = 0.80, v = 0.03, r = 0.0058)
	movel(p[0.6060,-0.3740,0.7011,0.0000,0.0000,0.0000], a = 0.80, v = 0.03, r = 0.0058)
	movel(p[0.6060,-0.3851,0.7054,0.0000,0.0000,0.0000], a = 0.80, v = 0.03, r = 0.0058)
	movel(p[0.6060,-0.3961,0.7098,0.0000,0.0000,0.0000], a = 0.80, v = 0.03, r = 0.0058)
	movel(p[0.6060,-0.4070,0.7146,0.0000,0.0000,0.0000], a = 0.80, v = 0.03, r = 0.0058)
	movel(p[0.6060,-0.4177,0.7198,0.0000,0.0000,0.0000], a = 0.80, v = 0.03, r = 0.0058)
	movel(p[0.6060,-0.4280,0.7257,0.0000,0.0000,0.0000], a = 0.80, v = 0.03, r = 0.0058)
	movel(p[0.6060,-0.4375,0.7328,0.0000,0.0000,0.0000], a = 0.80, v = 0.03, r = 0.0058)
	movel(p[0.6060,-0.4443,0.7424,0.0000,0.0000,0.0000], a = 0.80, v = 0.03, r = 0.0057)
	movel(p[0.6060,-0.4430,0.7538,0.0000,0.0000,0.0000], a = 0.80, v = 0.03, r = 0.0057)
	movel(p[0.6060,-0.4349,0.7624,0.0000,0.0000,0.0000], a = 0.80, v = 0.03, r = 0.0057)
	movel(p[0.6060,-0.4249,0.7689,0.0000,0.0000,0.0000], a = 0.80, v = 0.03, r = 0.0057)
	movel(p[0.6060,-0.4144,0.7743,0.0000,0.0000,0.0000], a = 0.80, v = 0.03, r = 0.0057)
	movel(p[0.6060,-0.4035,0.7790,0.0000,0.0000,0.0000], a = 0.80, v = 0.03, r = 0.0057)
	movel(p[0.6060,-0.3924,0.7833,0.0000,0.0000,0.0000], a = 0.80, v = 0.03, r = 0.0057)
	movel(p[0.6060,-0.3812,0.7874,0.0000,0.0000,0.0000], a = 0.80, v = 0.03, r = 0.0057)
	movel(p[0.6060,-0.3700,0.7912,0.0000,0.0000,0.0000], a = 0.80, v = 0.03, r = 0.0057)
	movel(p[0.6060,-0.3587,0.7949,0.0000,0.0000,0.0000], a = 0.80, v = 0.03, r = 0.0057)
	movel(p[0.6060,-0.3473,0.7985,0.0000,0.0000,0.0000], a = 0.80, v = 0.03, r = 0.0057)
	movel(p[0.6060,-0.3360,0.8020,0.0000,0.0000,0.0000], a = 0.80, v = 0.03, r = 0.0057)
	movel(p[0.6060,-0.2860,0.8020,-0.2618,0.0000,0.0000], a = 0.80, v = 0.03, r = 0.0057)
	movel(p[0.6060,-0.2360,0.8020,-0.5236,0.0000,0.0000], a = 0.80, v = 0.03, r = 0.0057)
	movel(p[0.6060,-0.1860,0.8020,-0.7854,0.0000,0.0000], a = 0.80, v = 0.03, r = 0.0057)
	movel(p[0.6060,-0.1360,0.8020,-1.0472,0.0000,0.0000], a = 0.80, v = 0.03, r = 0.0057)
	movel(p[0.6060,-0.0860,0.8020,-1.3090,0.0000,0.0000], a = 0.80, v = 0.03, r = 0.0057)
	movel(p[0.6060,-0.0360,0.8020,-1.5708,0.0000,0.0000], a = 0.80, v = 0.03, r = 0.0057)
	movel(p[0.6706,-0.0237,0.7623,-1.3090,0.0000,0.0000], a = 0.80, v = 0.03, r = 0.0057)
	movel(p[0.7351,-0.0115,0.7225,-1.0472,0.0000,0.0000], a = 0.80, v = 0.03, r = 0.0057)
	movel(p[0.7997,0.0008,0.6828,-0.7854,0.0000,0.0000], a = 0.80, v = 0.03, r = 0.0057)
	movel(p[0.8642,0.0131,0.6430,-0.5236,0.0000,0.0000], a = 0.80, v = 0.03, r = 0.0057)
	movel(p[0.9288,0.0253,0.6033,-0.2618,0.0000,0.0000], a = 0.80, v = 0.03, r = 0.0057)
	movel(p[0.9933,0.0376,0.5635,0.0000,0.0000,0.0000], a = 0.80, v = 0.03, r = 0.0000)
	movel(p[0.8356,0.1287,0.0350,0.0000,0.0000,0.0000], a = 0.80, v = 0.06, r = 0.0101)
	movel(p[0.8335,0.1488,0.0350,0.0000,0.0000,0.0000], a = 0.80, v = 0.06, r = 0.0101)
	movel(p[0.8275,0.1681,0.0351,0.0000,0.0000,0.0000], a = 0.80, v = 0.06, r = 0.0101)
	movel(p[0.8176,0.1858,0.0351,0.0000,0.0000,0.0000], a = 0.80, v = 0.06, r = 0.0101)
	movel(p[0.8045,0.2012,0.0351,0.0000,0.0000,0.0000], a = 0.80, v = 0.06, r = 0.0101)
	movel(p[0.7885,0.2136,0.0352,0.0000,0.0000,0.0000], a = 0.80, v = 0.06, r = 0.0101)
	movel(p[0.7703,0.2225,0.0352,0.0000,0.0000,0.0000], a = 0.80, v = 0.06, r = 0.0101)
	movel(p[0.7507,0.2275,0.0352,0.0000,0.0000,0.0000], a = 0.80, v = 0.06, r = 0.0101)
	movel(p[0.7305,0.2286,0.0353,0.0000,0.0000,0.0000], a = 0.80, v = 0.06, r = 0.0101)
	movel(p[0.7105,0.2255,0.0353,0.0000,0.0000,0.0000], a = 0.80, v = 0.06, r = 0.0101)
	movel(p[0.6915,0.2185,0.0353,0.0000,0.0000,0.0000], a = 0.80, v = 0.06, r = 0.0101)
	movel(p[0.6744,0.2078,0.0354,0.0000,0.0000,0.0000], a = 0.80, v = 0.06, r = 0.0101)
	movel(p[0.6597,0.1938,0.0354,0.0000,0.0000,0.0000], a = 0.80, v = 0.06, r = 0.0101)
	movel(p[0.6481,0.1772,0.0354,0.0000,0.0000,0.0000], a = 0.80, v = 0.06, r = 0.0101)
	movel(p[0.6402,0.1586,0.0355,0.0000,0.0000,0.0000], a = 0.80, v = 0.06, r = 0.0101)
	movel(p[0.6361,0.1388,0.0355,0.0000,0.0000,0.0000], a = 0.80, v = 0.06, r = 0.0101)
	movel(p[0.6361,0.1186,0.0355,0.0000,0.0000,0.0000], a = 0.80, v = 0.06, r = 0.0101)
	movel(p[0.6402,0.0988,0.0355,0.0000,0.0000,0.0000], a = 0.80, v = 0.06, r = 0.0101)
	movel(p[0.6481,0.0802,0.0356,0.0000,0.0000,0.0000], a = 0.80, v = 0.06, r = 0.0101)
	movel(p[0.6597,0.0636,0.0356,0.0000,0.0000,0.0000], a = 0.80, v = 0.06, r = 0.0101)
	movel(p[0.6744,0.0496,0.0356,0.0000,0.0000,0.0000], a = 0.80, v = 0.06, r = 0.0101)
	movel(p[0.6915,0.0389,0.0357,0.0000,0.0000,0.0000], a = 0.80, v = 0.06, r = 0.0101)
	movel(p[0.7105,0.0319,0.0357,0.0000,0.0000,0.0000], a = 0.80, v = 0.06, r = 0.0101)
	movel(p[0.7305,0.0288,0.0357,0.0000,0.0000,0.0000], a = 0.80, v = 0.06, r = 0.0101)
	movel(p[0.7507,0.0298,0.0358,0.0000,0.0000,0.0000], a = 0.80, v = 0.06, r = 0.0101)
	movel(p[0.7703,0.0349,0.0358,0.0000,0.0000,0.0000], a = 0.80, v = 0.06, r = 0.0101)
	movel(p[0.7885,0.0438,0.0358,0.0000,0.0000,0.0000], a = 0.80, v = 0.06, r = 0.0101)
	movel(p[0.8045,0.0562,0.0359,0.0000,0.0000,0.0000], a = 0.80, v = 0.06, r = 0.0101)
	movel(p[0.8176,0.0716,0.0359,0.0000,0.0000,0.0000], a = 0.80, v = 0.06, r = 0.0101)
	movel(p[0.8275,0.0893,0.0359,0.0000,0.0000,0.0000], a = 0.80, v = 0.06, r = 0.0101)
	movel(p[0.8335,0.1086,0.0360,0.0000,0.0000,0.0000], a = 0.80, v = 0.06, r = 0.0101)
	movel(p[0.8356,0.1287,0.0500,-0.5653,-0.0008,0.0011], a = 0.80, v = 0.01, r = 0.0101)
	movel(p[0.8336,0.1485,0.0595,-0.5565,-0.0801,0.1090], a = 0.80, v = 0.01, r = 0.0101)
	movel(p[0.8277,0.1675,0.0690,-0.5406,-0.1609,0.2136], a = 0.80, v = 0.01, r = 0.0101)
	movel(p[0.8182,0.1850,0.0786,-0.5106,-0.2416,0.3042], a = 0.80, v = 0.01, r = 0.0101)
	movel(p[0.8054,0.2003,0.0881,-0.4650,-0.3227,0.3717], a = 0.80, v = 0.01, r = 0.0101)
	movel(p[0.7898,0.2127,0.0976,-0.3977,-0.4034,0.3981], a = 0.80, v = 0.01, r = 0.0101)
	movel(p[0.7721,0.2218,0.1071,-0.2990,-0.4803,0.3552], a = 0.80, v = 0.01, r = 0.0101)
	movel(p[0.7530,0.2272,0.1166,-0.1569,-0.5414,0.2086], a = 0.80, v = 0.01, r = 0.0101)
	movel(p[0.7331,0.2287,0.1262,0.0228,-0.5622,-0.0314], a = 0.80, v = 0.01, r = 0.0101)
	movel(p[0.7134,0.2262,0.1357,0.1961,-0.5291,-0.2553], a = 0.80, v = 0.01, r = 0.0101)
	movel(p[0.6945,0.2199,0.1452,0.3268,-0.4622,-0.3742], a = 0.80, v = 0.01, r = 0.0101)
	movel(p[0.6772,0.2099,0.1547,0.4167,-0.3838,-0.3967], a = 0.80, v = 0.01, r = 0.0101)
	movel(p[0.6623,0.1968,0.1643,0.4779,-0.3028,-0.3581], a = 0.80, v = 0.01, r = 0.0101)
	movel(p[0.6503,0.1809,0.1738,0.5193,-0.2217,-0.2837], a = 0.80, v = 0.01, r = 0.0101)
	movel(p[0.6416,0.1630,0.1833,0.5456,-0.1410,-0.1888], a = 0.80, v = 0.01, r = 0.0101)
	movel(p[0.6367,0.1437,0.1928,0.5596,-0.0606,-0.0830], a = 0.80, v = 0.01, r = 0.0101)
	movel(p[0.6357,0.1238,0.2023,0.5623,0.0197,0.0271], a = 0.80, v = 0.01, r = 0.0101)
	movel(p[0.6386,0.1041,0.2119,0.5542,0.1000,0.1358], a = 0.80, v = 0.01, r = 0.0101)
	movel(p[0.6454,0.0854,0.2214,0.5343,0.1806,0.2372], a = 0.80, v = 0.01, r = 0.0101)
	movel(p[0.6558,0.0684,0.2309,0.5011,0.2615,0.3235], a = 0.80, v = 0.01, r = 0.0101)
	movel(p[0.6693,0.0538,0.2404,0.4508,0.3427,0.3828], a = 0.80, v = 0.01, r = 0.0101)
	movel(p[0.6855,0.0421,0.2499,0.3768,0.4229,0.3954], a = 0.80, v = 0.01, r = 0.0101)
	movel(p[0.7036,0.0339,0.2595,0.2684,0.4975,0.3298], a = 0.80, v = 0.01, r = 0.0101)
	movel(p[0.7230,0.0295,0.2690,0.1151,0.5514,0.1556], a = 0.80, v = 0.01, r = 0.0101)
	movel(p[0.7429,0.0290,0.2785,-0.0682,0.5587,-0.0932], a = 0.80, v = 0.01, r = 0.0101)
	movel(p[0.7625,0.0324,0.2880,-0.2326,0.5146,-0.2951], a = 0.80, v = 0.01, r = 0.0101)
	movel(p[0.7811,0.0396,0.2976,-0.3522,0.4434,-0.3872], a = 0.80, v = 0.01, r = 0.0101)
	movel(p[0.7978,0.0504,0.3071,-0.4340,0.3639,-0.3917], a = 0.80, v = 0.01, r = 0.0101)
	movel(p[0.8121,0.0643,0.3166,-0.4897,0.2828,-0.3424], a = 0.80, v = 0.01, r = 0.0101)
	movel(p[0.8233,0.0807,0.3261,-0.5270,0.2018,-0.2618], a = 0.80, v = 0.01, r = 0.0101)
	movel(p[0.8311,0.0991,0.3356,-0.5501,0.1212,-0.1634], a = 0.80, v = 0.01, r = 0.0101)
	movel(p[0.8351,0.1186,0.3452,-0.5613,0.0408,-0.0560], a = 0.80, v = 0.01, r = 0.0101)
	movel(p[0.8351,0.1385,0.3547,-0.5614,-0.0395,0.0542], a = 0.80, v = 0.03, r = 0.0101)
	movel(p[0.8312,0.1580,0.3642,-0.5504,-0.1199,0.1617], a = 0.80, v = 0.03, r = 0.0101)
	movel(p[0.8235,0.1764,0.3737,-0.5275,-0.2005,0.2603], a = 0.80, v = 0.03, r = 0.0101)
	movel(p[0.8123,0.1928,0.3832,-0.4905,-0.2815,0.3412], a = 0.80, v = 0.03, r = 0.0101)
	movel(p[0.7981,0.2068,0.3928,-0.4351,-0.3626,0.3913], a = 0.80, v = 0.03, r = 0.0101)
	movel(p[0.7814,0.2176,0.4023,-0.3539,-0.4422,0.3879], a = 0.80, v = 0.03, r = 0.0101)
	movel(p[0.7628,0.2249,0.4118,-0.2350,-0.5136,0.2975], a = 0.80, v = 0.03, r = 0.0101)
	movel(p[0.7432,0.2284,0.4213,-0.0711,-0.5584,0.0973], a = 0.80, v = 0.03, r = 0.0101)
	movel(p[0.7233,0.2279,0.4309,0.1122,-0.5519,-0.1518], a = 0.80, v = 0.03, r = 0.0101)
	movel(p[0.7039,0.2235,0.4404,0.2663,-0.4986,-0.3279], a = 0.80, v = 0.03, r = 0.0101)
	movel(p[0.6858,0.2154,0.4499,0.3754,-0.4242,-0.3950], a = 0.80, v = 0.03, r = 0.0101)
	movel(p[0.6696,0.2038,0.4594,0.4498,-0.3440,-0.3835], a = 0.80, v = 0.03, r = 0.0101)
	movel(p[0.6560,0.1893,0.4689,0.5004,-0.2628,-0.3248], a = 0.80, v = 0.03, r = 0.0101)
	movel(p[0.6456,0.1723,0.4785,0.5339,-0.1819,-0.2388], a = 0.80, v = 0.03, r = 0.0101)
	movel(p[0.6387,0.1536,0.4880,0.5539,-0.1014,-0.1376], a = 0.80, v = 0.03, r = 0.0101)
	movel(p[0.6357,0.1339,0.4975,0.5623,-0.0210,-0.0289], a = 0.80, v = 0.03, r = 0.0101)
	movel(p[0.6366,0.1140,0.5070,0.5597,0.0593,0.0812], a = 0.80, v = 0.03, r = 0.0101)
	movel(p[0.6415,0.0947,0.5165,0.5459,0.1397,0.1871], a = 0.80, v = 0.03, r = 0.0101)
	movel(p[0.6501,0.0768,0.5261,0.5198,0.2204,0.2822], a = 0.80, v = 0.03, r = 0.0101)
	movel(p[0.6621,0.0609,0.5356,0.4788,0.3015,0.3571], a = 0.80, v = 0.03, r = 0.0101)
	movel(p[0.6770,0.0477,0.5451,0.4179,0.3825,0.3965], a = 0.80, v = 0.03, r = 0.0101)
	movel(p[0.6942,0.0377,0.5546,0.3286,0.4610,0.3752], a = 0.80, v = 0.03, r = 0.0101)
	movel(p[0.7130,0.0313,0.5642,0.1987,0.5282,0.2582], a = 0.80, v = 0.03, r = 0.0101)
	movel(p[0.7328,0.0287,0.5737,0.0259,0.5621,0.0356], a = 0.80, v = 0.03, r = 0.0101)
	movel(p[0.7526,0.0302,0.5832,-0.1542,0.5422,-0.2053], a = 0.80, v = 0.03, r = 0.0101)
	movel(p[0.7718,0.0355,0.5927,-0.2970,0.4815,-0.3537], a = 0.80, v = 0.03, r = 0.0101)
	movel(p[0.7896,0.0445,0.6022,-0.3964,0.4048,-0.3981], a = 0.80, v = 0.03, r = 0.0101)
	movel(p[0.8052,0.0569,0.6118,-0.4640,0.3240,-0.3724], a = 0.80, v = 0.03, r = 0.0101)
	movel(p[0.8180,0.0721,0.6213,-0.5102,0.2430,-0.3059], a = 0.80, v = 0.03, r = 0.0101)
	movel(p[0.8276,0.0896,0.6308,-0.5393,0.1618,-0.2142], a = 0.80, v = 0.03, r = 0.0101)
	movel(p[0.8335,0.1086,0.6403,-0.5595,0.0826,-0.1133], a = 0.80, v = 0.03, r = 0.0101)
	movel(p[0.8335,0.1586,0.6403,-0.7284,0.0673,-0.0997], a = 0.80, v = 0.03, r = 0.0101)
	movel(p[0.8335,0.2086,0.6403,-0.8971,0.0513,-0.0852], a = 0.80, v = 0.03, r = 0.0101)
	movel(p[0.8335,0.2586,0.6403,-1.0657,0.0347,-0.0700], a = 0.80, v = 0.03, r = 0.0101)
	movel(p[0.8335,0.3086,0.6403,-1.2342,0.0174,-0.0540], a = 0.80, v = 0.03, r = 0.0101)
	movel(p[0.8335,0.3586,0.6403,-1.4025,-0.0006,-0.0371], a = 0.80, v = 0.03, r = 0.0101)
	movel(p[0.8335,0.4086,0.6403,-1.5708,0.0000,0.0000], a = 0.80, v = 0.03, r = 0.0101)
	movel(p[0.8602,0.3883,0.6275,-1.3090,0.0000,0.0000], a = 0.80, v = 0.03, r = 0.0101)
	movel(p[0.8868,0.3680,0.6147,-1.0472,0.0000,0.0000], a = 0.80, v = 0.03, r = 0.0101)
	movel(p[0.9134,0.3477,0.6019,-0.7854,0.0000,0.0000], a = 0.80, v = 0.03, r = 0.0101)
	movel(p[0.9401,0.3275,0.5891,-0.5236,0.0000,0.0000], a = 0.80, v = 0.03, r = 0.0101)
	movel(p[0.9667,0.3072,0.5763,-0.2618,0.0000,0.0000], a = 0.80, v = 0.03, r = 0.0101)
	movel(p[0.9933,0.2869,0.5635,0.0000,0.0000,0.0000], a = 0.80, v = 0.03, r = 0.0000)

	
end

my_script()
