
def my_script():
	movel(p[0.7060,-0.3360,0.0350,0.0000,0.0000,0.0000], a = 0.80, v = 0.060, r = 0.0125)
	movel(p[0.7029,-0.3111,0.0350,0.0000,0.0000,0.0000], a = 0.80, v = 0.060, r = 0.0125)
	movel(p[0.6937,-0.2878,0.0351,0.0000,0.0000,0.0000], a = 0.80, v = 0.060, r = 0.0125)
	movel(p[0.6789,-0.2675,0.0351,0.0000,0.0000,0.0000], a = 0.80, v = 0.060, r = 0.0125)
	movel(p[0.6596,-0.2516,0.0352,0.0000,0.0000,0.0000], a = 0.80, v = 0.060, r = 0.0125)
	movel(p[0.6369,-0.2409,0.0352,0.0000,0.0000,0.0000], a = 0.80, v = 0.060, r = 0.0125)
	movel(p[0.6123,-0.2362,0.0352,0.0000,0.0000,0.0000], a = 0.80, v = 0.060, r = 0.0125)
	movel(p[0.5873,-0.2378,0.0353,0.0000,0.0000,0.0000], a = 0.80, v = 0.060, r = 0.0125)
	movel(p[0.5634,-0.2455,0.0353,0.0000,0.0000,0.0000], a = 0.80, v = 0.060, r = 0.0125)
	movel(p[0.5423,-0.2589,0.0354,0.0000,0.0000,0.0000], a = 0.80, v = 0.060, r = 0.0125)
	movel(p[0.5251,-0.2772,0.0354,0.0000,0.0000,0.0000], a = 0.80, v = 0.060, r = 0.0125)
	movel(p[0.5130,-0.2992,0.0354,0.0000,0.0000,0.0000], a = 0.80, v = 0.060, r = 0.0125)
	movel(p[0.5068,-0.3235,0.0355,0.0000,0.0000,0.0000], a = 0.80, v = 0.060, r = 0.0125)
	movel(p[0.5068,-0.3485,0.0355,0.0000,0.0000,0.0000], a = 0.80, v = 0.060, r = 0.0125)
	movel(p[0.5130,-0.3728,0.0356,0.0000,0.0000,0.0000], a = 0.80, v = 0.060, r = 0.0125)
	movel(p[0.5251,-0.3948,0.0356,0.0000,0.0000,0.0000], a = 0.80, v = 0.060, r = 0.0125)
	movel(p[0.5423,-0.4130,0.0356,0.0000,0.0000,0.0000], a = 0.80, v = 0.060, r = 0.0125)
	movel(p[0.5634,-0.4265,0.0357,0.0000,0.0000,0.0000], a = 0.80, v = 0.060, r = 0.0125)
	movel(p[0.5873,-0.4342,0.0357,0.0000,0.0000,0.0000], a = 0.80, v = 0.060, r = 0.0125)
	movel(p[0.6123,-0.4358,0.0358,0.0000,0.0000,0.0000], a = 0.80, v = 0.060, r = 0.0125)
	movel(p[0.6369,-0.4311,0.0358,0.0000,0.0000,0.0000], a = 0.80, v = 0.060, r = 0.0125)
	movel(p[0.6596,-0.4204,0.0358,0.0000,0.0000,0.0000], a = 0.80, v = 0.060, r = 0.0125)
	movel(p[0.6789,-0.4044,0.0359,0.0000,0.0000,0.0000], a = 0.80, v = 0.060, r = 0.0125)
	movel(p[0.6937,-0.3842,0.0359,0.0000,0.0000,0.0000], a = 0.80, v = 0.060, r = 0.0125)
	movel(p[0.7029,-0.3609,0.0360,0.0000,0.0000,0.0000], a = 0.80, v = 0.060, r = 0.0125)
	movel(p[0.6060,-0.3360,0.0350,0.0000,0.0000,0.0000], a = 0.80, v = 0.015, r = 0.0125)
	movel(p[0.6060,-0.3360,0.0850,0.0000,0.0000,0.0000], a = 0.80, v = 0.015, r = 0.0100)
	movel(p[0.6060,-0.3360,0.1050,0.0000,0.0000,0.0000], a = 0.80, v = 0.015, r = 0.0061)
	movel(p[0.6060,-0.3353,0.1171,-0.1190,0.0000,0.0000], a = 0.80, v = 0.015, r = 0.0061)
	movel(p[0.6060,-0.3333,0.1291,-0.2011,-0.0000,0.0000], a = 0.80, v = 0.015, r = 0.0061)
	movel(p[0.6060,-0.3306,0.1409,-0.2250,0.0000,0.0000], a = 0.80, v = 0.015, r = 0.0061)
	movel(p[0.6060,-0.3281,0.1528,-0.1800,-0.0000,0.0000], a = 0.80, v = 0.015, r = 0.0061)
	movel(p[0.6060,-0.3266,0.1648,-0.0634,0.0000,0.0000], a = 0.80, v = 0.015, r = 0.0061)
	movel(p[0.6060,-0.3268,0.1769,0.1087,0.0000,0.0000], a = 0.80, v = 0.015, r = 0.0061)
	movel(p[0.6060,-0.3292,0.1888,0.2899,0.0000,0.0000], a = 0.80, v = 0.015, r = 0.0061)
	movel(p[0.6060,-0.3336,0.2001,0.4324,0.0000,0.0000], a = 0.80, v = 0.015, r = 0.0061)
	movel(p[0.6060,-0.3392,0.2108,0.5177,0.0000,0.0000], a = 0.80, v = 0.015, r = 0.0061)
	movel(p[0.6060,-0.3454,0.2213,0.5451,-0.0000,-0.0000], a = 0.80, v = 0.015, r = 0.0061)
	movel(p[0.6060,-0.3515,0.2317,0.5118,0.0000,0.0000], a = 0.80, v = 0.015, r = 0.0061)
	movel(p[0.6060,-0.3570,0.2425,0.4015,0.0000,0.0000], a = 0.80, v = 0.015, r = 0.0061)
	movel(p[0.6060,-0.3606,0.2541,0.1850,0.0000,0.0000], a = 0.80, v = 0.015, r = 0.0060)
	movel(p[0.6060,-0.3610,0.2662,-0.1312,0.0000,0.0000], a = 0.80, v = 0.015, r = 0.0060)
	movel(p[0.6060,-0.3575,0.2777,-0.4327,-0.0000,0.0000], a = 0.80, v = 0.015, r = 0.0060)
	movel(p[0.6060,-0.3513,0.2881,-0.6339,0.0000,-0.0000], a = 0.80, v = 0.015, r = 0.0060)
	movel(p[0.6060,-0.3435,0.2974,-0.7492,0.0000,-0.0000], a = 0.80, v = 0.015, r = 0.0060)
	movel(p[0.6060,-0.3349,0.3060,-0.8082,0.0000,0.0000], a = 0.80, v = 0.015, r = 0.0060)
	movel(p[0.6060,-0.3261,0.3143,-0.8268,0.0000,0.0000], a = 0.80, v = 0.015, r = 0.0060)
	movel(p[0.6060,-0.3172,0.3225,-0.8084,0.0000,0.0000], a = 0.80, v = 0.015, r = 0.0060)
	movel(p[0.6060,-0.3087,0.3312,-0.7433,0.0000,-0.0000], a = 0.80, v = 0.015, r = 0.0060)
	movel(p[0.6060,-0.3010,0.3406,-0.5993,0.0000,0.0000], a = 0.80, v = 0.015, r = 0.0060)
	movel(p[0.6060,-0.2956,0.3514,-0.3004,0.0000,0.0000], a = 0.80, v = 0.015, r = 0.0060)
	movel(p[0.6060,-0.2948,0.3633,0.1855,0.0000,0.0000], a = 0.80, v = 0.015, r = 0.0060)
	movel(p[0.6060,-0.2996,0.3744,0.5865,0.0000,0.0000], a = 0.80, v = 0.015, r = 0.0060)
	movel(p[0.6060,-0.3074,0.3836,0.7993,0.0000,0.0000], a = 0.80, v = 0.015, r = 0.0060)
	movel(p[0.6060,-0.3166,0.3915,0.9101,0.0000,0.0000], a = 0.80, v = 0.015, r = 0.0060)
	movel(p[0.6060,-0.3264,0.3987,0.9700,0.0000,0.0000], a = 0.80, v = 0.015, r = 0.0060)
	movel(p[0.6060,-0.3365,0.4053,1.0003,0.0000,0.0000], a = 0.80, v = 0.015, r = 0.0060)
	movel(p[0.6060,-0.3468,0.4118,1.0091,0.0000,0.0000], a = 0.80, v = 0.015, r = 0.0060)
	movel(p[0.6060,-0.3570,0.4183,0.9981,0.0000,0.0000], a = 0.80, v = 0.015, r = 0.0060)
	movel(p[0.6060,-0.3671,0.4251,0.9631,0.0000,0.0000], a = 0.80, v = 0.015, r = 0.0060)
	movel(p[0.6060,-0.3768,0.4323,0.8902,0.0000,0.0000], a = 0.80, v = 0.015, r = 0.0060)
	movel(p[0.6060,-0.3857,0.4405,0.7397,-0.0000,-0.0000], a = 0.80, v = 0.015, r = 0.0060)
	movel(p[0.6060,-0.3924,0.4505,0.3920,0.0000,0.0000], a = 0.80, v = 0.015, r = 0.0060)
	movel(p[0.6060,-0.3934,0.4624,-0.2604,0.0000,0.0000], a = 0.80, v = 0.015, r = 0.0060)
	movel(p[0.6060,-0.3874,0.4728,-0.7181,0.0000,0.0000], a = 0.80, v = 0.015, r = 0.0060)
	movel(p[0.6060,-0.3785,0.4810,-0.9180,0.0000,-0.0000], a = 0.80, v = 0.015, r = 0.0060)
	movel(p[0.6060,-0.3684,0.4878,-1.0171,0.0000,0.0000], a = 0.80, v = 0.015, r = 0.0060)
	movel(p[0.6060,-0.3579,0.4939,-1.0725,0.0000,0.0000], a = 0.80, v = 0.015, r = 0.0060)
	movel(p[0.6060,-0.3472,0.4995,-1.1044,0.0000,0.0000], a = 0.80, v = 0.015, r = 0.0060)
	movel(p[0.6060,-0.3363,0.5049,-1.1211,0.0000,0.0000], a = 0.80, v = 0.015, r = 0.0060)
	movel(p[0.6060,-0.3254,0.5101,-1.1262,0.0000,0.0000], a = 0.80, v = 0.015, r = 0.0060)
	movel(p[0.6060,-0.3144,0.5153,-1.1205,-0.0000,0.0000], a = 0.80, v = 0.015, r = 0.0060)
	movel(p[0.6060,-0.3035,0.5207,-1.1024,0.0000,0.0000], a = 0.80, v = 0.015, r = 0.0060)
	movel(p[0.6060,-0.2928,0.5263,-1.0670,0.0000,0.0000], a = 0.80, v = 0.015, r = 0.0060)
	movel(p[0.6060,-0.2824,0.5325,-1.0022,0.0000,0.0000], a = 0.80, v = 0.015, r = 0.0060)
	movel(p[0.6060,-0.2725,0.5396,-0.8740,0.0000,0.0000], a = 0.80, v = 0.015, r = 0.0060)
	movel(p[0.6060,-0.2644,0.5485,-0.5623,-0.0000,0.0000], a = 0.80, v = 0.005, r = 0.0059)
	movel(p[0.6060,-0.2618,0.5600,0.2037,0.0000,0.0000], a = 0.80, v = 0.005, r = 0.0059)
	movel(p[0.6060,-0.2679,0.5703,0.7703,0.0000,0.0000], a = 0.80, v = 0.005, r = 0.0059)
	movel(p[0.6060,-0.2773,0.5779,0.9807,0.0000,0.0000], a = 0.80, v = 0.005, r = 0.0059)
	movel(p[0.6060,-0.2878,0.5841,1.0791,-0.0000,-0.0000], a = 0.80, v = 0.005, r = 0.0059)
	movel(p[0.6060,-0.2986,0.5895,1.1342,0.0000,0.0000], a = 0.80, v = 0.005, r = 0.0059)
	movel(p[0.6060,-0.3097,0.5944,1.1678,0.0000,0.0000], a = 0.80, v = 0.005, r = 0.0059)
	movel(p[0.6060,-0.3209,0.5991,1.1884,0.0000,0.0000], a = 0.80, v = 0.005, r = 0.0059)
	movel(p[0.6060,-0.3322,0.6035,1.2002,-0.0000,-0.0000], a = 0.80, v = 0.005, r = 0.0059)
	movel(p[0.6060,-0.3435,0.6079,1.2050,0.0000,0.0000], a = 0.80, v = 0.005, r = 0.0059)
	movel(p[0.6060,-0.3548,0.6122,1.2035,0.0000,0.0000], a = 0.80, v = 0.005, r = 0.0059)
	movel(p[0.6060,-0.3661,0.6166,1.1952,-0.0000,-0.0000], a = 0.80, v = 0.005, r = 0.0059)
	movel(p[0.6060,-0.3774,0.6212,1.1787,0.0000,0.0000], a = 0.80, v = 0.005, r = 0.0059)
	movel(p[0.6060,-0.3885,0.6259,1.1506,-0.0000,-0.0000], a = 0.80, v = 0.005, r = 0.0059)
	movel(p[0.6060,-0.3995,0.6311,1.1032,0.0000,0.0000], a = 0.80, v = 0.005, r = 0.0059)
	movel(p[0.6060,-0.4101,0.6370,1.0170,0.0000,0.0000], a = 0.80, v = 0.005, r = 0.0059)
	movel(p[0.6060,-0.4199,0.6442,0.8275,-0.0000,-0.0000], a = 0.80, v = 0.005, r = 0.0059)
	movel(p[0.6060,-0.4265,0.6541,0.2427,0.0000,0.0000], a = 0.80, v = 0.005, r = 0.0058)
	movel(p[0.6060,-0.4236,0.6654,-0.6592,0.0000,-0.0000], a = 0.80, v = 0.005, r = 0.0058)
	movel(p[0.6060,-0.4145,0.6734,-0.9740,-0.0000,0.0000], a = 0.80, v = 0.005, r = 0.0058)
	movel(p[0.6060,-0.4041,0.6795,-1.0976,0.0000,0.0000], a = 0.80, v = 0.005, r = 0.0058)
	movel(p[0.6060,-0.3931,0.6846,-1.1624,0.0000,0.0000], a = 0.80, v = 0.005, r = 0.0058)
	movel(p[0.6060,-0.3819,0.6892,-1.2023,0.0000,-0.0000], a = 0.80, v = 0.005, r = 0.0058)
	movel(p[0.6060,-0.3705,0.6934,-1.2272,0.0000,0.0000], a = 0.80, v = 0.005, r = 0.0058)
	movel(p[0.6060,-0.3590,0.6974,-1.2411,-0.0000,0.0000], a = 0.80, v = 0.005, r = 0.0058)
	movel(p[0.6060,-0.3475,0.7013,-1.2528,0.0000,0.0000], a = 0.80, v = 0.005, r = 0.0058)
	movel(p[0.6060,-0.3360,0.7050,-1.2676,0.0000,0.0000], a = 0.80, v = 0.005, r = 0.0058)
	movel(p[0.6060,-0.3027,0.7050,-1.3182,0.0000,0.0000], a = 0.80, v = 0.005, r = 0.0058)
	movel(p[0.6060,-0.2693,0.7050,-1.3687,0.0000,0.0000], a = 0.80, v = 0.005, r = 0.0058)
	movel(p[0.6060,-0.2360,0.7050,-1.4192,0.0000,0.0000], a = 0.80, v = 0.005, r = 0.0058)
	movel(p[0.6060,-0.2027,0.7050,-1.4697,0.0000,0.0000], a = 0.80, v = 0.005, r = 0.0058)
	movel(p[0.6060,-0.1693,0.7050,-1.5203,0.0000,0.0000], a = 0.80, v = 0.005, r = 0.0058)
	movel(p[0.6060,-0.1360,0.7050,-1.5708,0.0000,0.0000], a = 0.80, v = 0.005, r = 0.0058)
	movel(p[0.6706,-0.1071,0.6814,-1.3090,0.0000,0.0000], a = 0.80, v = 0.005, r = 0.0058)
	movel(p[0.7351,-0.0781,0.6578,-1.0472,0.0000,0.0000], a = 0.80, v = 0.005, r = 0.0058)
	movel(p[0.7997,-0.0492,0.6343,-0.7854,0.0000,0.0000], a = 0.80, v = 0.005, r = 0.0058)
	movel(p[0.8642,-0.0203,0.6107,-0.5236,0.0000,0.0000], a = 0.80, v = 0.005, r = 0.0058)
	movel(p[0.9288,0.0087,0.5871,-0.2618,0.0000,0.0000], a = 0.80, v = 0.005, r = 0.0058)
	movel(p[0.9933,0.0376,0.5635,0.0000,0.0000,0.0000], a = 0.80, v = 0.005, r = 0.0000)
	
end

my_script()
