
def my_script():
	movel(p[0.8356,-0.1503,0.0350,0.0000,0.0000,0.0000], a = 0.80, v = 0.060, r = 0.0101)
	movel(p[0.8335,-0.1301,0.0350,0.0000,0.0000,0.0000], a = 0.80, v = 0.060, r = 0.0101)
	movel(p[0.8275,-0.1108,0.0351,0.0000,0.0000,0.0000], a = 0.80, v = 0.060, r = 0.0101)
	movel(p[0.8176,-0.0931,0.0351,0.0000,0.0000,0.0000], a = 0.80, v = 0.060, r = 0.0101)
	movel(p[0.8045,-0.0778,0.0351,0.0000,0.0000,0.0000], a = 0.80, v = 0.060, r = 0.0101)
	movel(p[0.7885,-0.0654,0.0352,0.0000,0.0000,0.0000], a = 0.80, v = 0.060, r = 0.0101)
	movel(p[0.7703,-0.0565,0.0352,0.0000,0.0000,0.0000], a = 0.80, v = 0.060, r = 0.0101)
	movel(p[0.7507,-0.0514,0.0352,0.0000,0.0000,0.0000], a = 0.80, v = 0.060, r = 0.0101)
	movel(p[0.7305,-0.0504,0.0353,0.0000,0.0000,0.0000], a = 0.80, v = 0.060, r = 0.0101)
	movel(p[0.7105,-0.0534,0.0353,0.0000,0.0000,0.0000], a = 0.80, v = 0.060, r = 0.0101)
	movel(p[0.6915,-0.0605,0.0353,0.0000,0.0000,0.0000], a = 0.80, v = 0.060, r = 0.0101)
	movel(p[0.6744,-0.0712,0.0354,0.0000,0.0000,0.0000], a = 0.80, v = 0.060, r = 0.0101)
	movel(p[0.6597,-0.0851,0.0354,0.0000,0.0000,0.0000], a = 0.80, v = 0.060, r = 0.0101)
	movel(p[0.6481,-0.1017,0.0354,0.0000,0.0000,0.0000], a = 0.80, v = 0.060, r = 0.0101)
	movel(p[0.6402,-0.1203,0.0355,0.0000,0.0000,0.0000], a = 0.80, v = 0.060, r = 0.0101)
	movel(p[0.6361,-0.1401,0.0355,0.0000,0.0000,0.0000], a = 0.80, v = 0.060, r = 0.0101)
	movel(p[0.6361,-0.1604,0.0355,0.0000,0.0000,0.0000], a = 0.80, v = 0.060, r = 0.0101)
	movel(p[0.6402,-0.1802,0.0355,0.0000,0.0000,0.0000], a = 0.80, v = 0.060, r = 0.0101)
	movel(p[0.6481,-0.1988,0.0356,0.0000,0.0000,0.0000], a = 0.80, v = 0.060, r = 0.0101)
	movel(p[0.6597,-0.2154,0.0356,0.0000,0.0000,0.0000], a = 0.80, v = 0.060, r = 0.0101)
	movel(p[0.6744,-0.2293,0.0356,0.0000,0.0000,0.0000], a = 0.80, v = 0.060, r = 0.0101)
	movel(p[0.6915,-0.2400,0.0357,0.0000,0.0000,0.0000], a = 0.80, v = 0.060, r = 0.0101)
	movel(p[0.7105,-0.2471,0.0357,0.0000,0.0000,0.0000], a = 0.80, v = 0.060, r = 0.0101)
	movel(p[0.7305,-0.2501,0.0357,0.0000,0.0000,0.0000], a = 0.80, v = 0.060, r = 0.0101)
	movel(p[0.7507,-0.2491,0.0358,0.0000,0.0000,0.0000], a = 0.80, v = 0.060, r = 0.0101)
	movel(p[0.7703,-0.2440,0.0358,0.0000,0.0000,0.0000], a = 0.80, v = 0.060, r = 0.0101)
	movel(p[0.7885,-0.2351,0.0358,0.0000,0.0000,0.0000], a = 0.80, v = 0.060, r = 0.0101)
	movel(p[0.8045,-0.2227,0.0359,0.0000,0.0000,0.0000], a = 0.80, v = 0.060, r = 0.0101)
	movel(p[0.8176,-0.2074,0.0359,0.0000,0.0000,0.0000], a = 0.80, v = 0.060, r = 0.0101)
	movel(p[0.8275,-0.1897,0.0359,0.0000,0.0000,0.0000], a = 0.80, v = 0.060, r = 0.0101)
	movel(p[0.8335,-0.1704,0.0360,0.0000,0.0000,0.0000], a = 0.80, v = 0.060, r = 0.0101)
	movel(p[0.8356,-0.1503,0.0500,0.0000,0.0000,0.0000], a = 0.80, v = 0.015, r = 0.0101)
	movel(p[0.8336,-0.1304,0.0595,0.0000,0.0000,0.0000], a = 0.80, v = 0.015, r = 0.0101)
	movel(p[0.8277,-0.1114,0.0690,0.0000,0.0000,0.0000], a = 0.80, v = 0.015, r = 0.0101)
	movel(p[0.8182,-0.0939,0.0786,0.0000,0.0000,0.0000], a = 0.80, v = 0.015, r = 0.0101)
	movel(p[0.8054,-0.0787,0.0881,0.0000,0.0000,0.0000], a = 0.80, v = 0.015, r = 0.0101)
	movel(p[0.7898,-0.0663,0.0976,0.0000,0.0000,0.0000], a = 0.80, v = 0.015, r = 0.0101)
	movel(p[0.7721,-0.0572,0.1071,0.0000,0.0000,0.0000], a = 0.80, v = 0.015, r = 0.0101)
	movel(p[0.7530,-0.0518,0.1166,0.0000,0.0000,0.0000], a = 0.80, v = 0.015, r = 0.0101)
	movel(p[0.7331,-0.0503,0.1262,0.0000,0.0000,0.0000], a = 0.80, v = 0.015, r = 0.0101)
	movel(p[0.7134,-0.0528,0.1357,0.0000,0.0000,0.0000], a = 0.80, v = 0.015, r = 0.0101)
	movel(p[0.6945,-0.0591,0.1452,0.0000,0.0000,0.0000], a = 0.80, v = 0.015, r = 0.0101)
	movel(p[0.6772,-0.0690,0.1547,0.0000,0.0000,0.0000], a = 0.80, v = 0.015, r = 0.0101)
	movel(p[0.6623,-0.0822,0.1643,0.0000,0.0000,0.0000], a = 0.80, v = 0.015, r = 0.0101)
	movel(p[0.6503,-0.0981,0.1738,0.0000,0.0000,0.0000], a = 0.80, v = 0.015, r = 0.0101)
	movel(p[0.6416,-0.1160,0.1833,0.0000,0.0000,0.0000], a = 0.80, v = 0.015, r = 0.0101)
	movel(p[0.6367,-0.1353,0.1928,0.0000,0.0000,0.0000], a = 0.80, v = 0.015, r = 0.0101)
	movel(p[0.6357,-0.1552,0.2023,0.0000,0.0000,0.0000], a = 0.80, v = 0.015, r = 0.0101)
	movel(p[0.6386,-0.1748,0.2119,0.0000,0.0000,0.0000], a = 0.80, v = 0.015, r = 0.0101)
	movel(p[0.6454,-0.1936,0.2214,0.0000,0.0000,0.0000], a = 0.80, v = 0.015, r = 0.0101)
	movel(p[0.6558,-0.2106,0.2309,0.0000,0.0000,0.0000], a = 0.80, v = 0.015, r = 0.0101)
	movel(p[0.6693,-0.2252,0.2404,0.0000,0.0000,0.0000], a = 0.80, v = 0.015, r = 0.0101)
	movel(p[0.6855,-0.2368,0.2499,0.0000,0.0000,0.0000], a = 0.80, v = 0.015, r = 0.0101)
	movel(p[0.7036,-0.2450,0.2595,0.0000,0.0000,0.0000], a = 0.80, v = 0.015, r = 0.0101)
	movel(p[0.7230,-0.2495,0.2690,0.0000,0.0000,0.0000], a = 0.80, v = 0.015, r = 0.0101)
	movel(p[0.7429,-0.2500,0.2785,0.0000,0.0000,0.0000], a = 0.80, v = 0.015, r = 0.0101)
	movel(p[0.7625,-0.2466,0.2880,0.0000,0.0000,0.0000], a = 0.80, v = 0.015, r = 0.0101)
	movel(p[0.7811,-0.2393,0.2976,0.0000,0.0000,0.0000], a = 0.80, v = 0.015, r = 0.0101)
	movel(p[0.7978,-0.2285,0.3071,0.0000,0.0000,0.0000], a = 0.80, v = 0.015, r = 0.0101)
	movel(p[0.8121,-0.2146,0.3166,0.0000,0.0000,0.0000], a = 0.80, v = 0.015, r = 0.0101)
	movel(p[0.8233,-0.1982,0.3261,0.0000,0.0000,0.0000], a = 0.80, v = 0.015, r = 0.0101)
	movel(p[0.8311,-0.1799,0.3356,0.0000,0.0000,0.0000], a = 0.80, v = 0.015, r = 0.0101)
	movel(p[0.8351,-0.1604,0.3452,0.0000,0.0000,0.0000], a = 0.80, v = 0.015, r = 0.0101)
	movel(p[0.8351,-0.1405,0.3547,0.0000,0.0000,0.0000], a = 0.80, v = 0.015, r = 0.0101)
	movel(p[0.8312,-0.1209,0.3642,0.0000,0.0000,0.0000], a = 0.80, v = 0.015, r = 0.0101)
	movel(p[0.8235,-0.1026,0.3737,0.0000,0.0000,0.0000], a = 0.80, v = 0.015, r = 0.0101)
	movel(p[0.8123,-0.0861,0.3832,0.0000,0.0000,0.0000], a = 0.80, v = 0.015, r = 0.0101)
	movel(p[0.7981,-0.0722,0.3928,0.0000,0.0000,0.0000], a = 0.80, v = 0.015, r = 0.0101)
	movel(p[0.7814,-0.0614,0.4023,0.0000,0.0000,0.0000], a = 0.80, v = 0.015, r = 0.0101)
	movel(p[0.7628,-0.0540,0.4118,0.0000,0.0000,0.0000], a = 0.80, v = 0.015, r = 0.0101)
	movel(p[0.7432,-0.0506,0.4213,0.0000,0.0000,0.0000], a = 0.80, v = 0.015, r = 0.0101)
	movel(p[0.7233,-0.0510,0.4309,0.0000,0.0000,0.0000], a = 0.80, v = 0.015, r = 0.0101)
	movel(p[0.7039,-0.0554,0.4404,0.0000,0.0000,0.0000], a = 0.80, v = 0.015, r = 0.0101)
	movel(p[0.6858,-0.0635,0.4499,0.0000,0.0000,0.0000], a = 0.80, v = 0.015, r = 0.0101)
	movel(p[0.6696,-0.0751,0.4594,0.0000,0.0000,0.0000], a = 0.80, v = 0.015, r = 0.0101)
	movel(p[0.6560,-0.0897,0.4689,0.0000,0.0000,0.0000], a = 0.80, v = 0.015, r = 0.0101)
	movel(p[0.6456,-0.1067,0.4785,0.0000,0.0000,0.0000], a = 0.80, v = 0.015, r = 0.0101)
	movel(p[0.6387,-0.1253,0.4880,0.0000,0.0000,0.0000], a = 0.80, v = 0.015, r = 0.0101)
	movel(p[0.6357,-0.1450,0.4975,0.0000,0.0000,0.0000], a = 0.80, v = 0.015, r = 0.0101)
	movel(p[0.6366,-0.1649,0.5070,0.0000,0.0000,0.0000], a = 0.80, v = 0.015, r = 0.0101)
	movel(p[0.6415,-0.1842,0.5165,0.0000,0.0000,0.0000], a = 0.80, v = 0.015, r = 0.0101)
	movel(p[0.6501,-0.2022,0.5261,0.0000,0.0000,0.0000], a = 0.80, v = 0.015, r = 0.0101)
	movel(p[0.6621,-0.2181,0.5356,0.0000,0.0000,0.0000], a = 0.80, v = 0.015, r = 0.0101)
	movel(p[0.6770,-0.2313,0.5451,0.0000,0.0000,0.0000], a = 0.80, v = 0.015, r = 0.0101)
	movel(p[0.6942,-0.2413,0.5546,0.0000,0.0000,0.0000], a = 0.80, v = 0.015, r = 0.0101)
	movel(p[0.7130,-0.2477,0.5642,0.0000,0.0000,0.0000], a = 0.80, v = 0.015, r = 0.0101)
	movel(p[0.7328,-0.2502,0.5737,0.0000,0.0000,0.0000], a = 0.80, v = 0.015, r = 0.0101)
	movel(p[0.7526,-0.2488,0.5832,0.0000,0.0000,0.0000], a = 0.80, v = 0.015, r = 0.0101)
	movel(p[0.7718,-0.2435,0.5927,0.0000,0.0000,0.0000], a = 0.80, v = 0.015, r = 0.0101)
	movel(p[0.7896,-0.2344,0.6022,0.0000,0.0000,0.0000], a = 0.80, v = 0.015, r = 0.0101)
	movel(p[0.8052,-0.2221,0.6118,0.0000,0.0000,0.0000], a = 0.80, v = 0.015, r = 0.0101)
	movel(p[0.8180,-0.2068,0.6213,0.0000,0.0000,0.0000], a = 0.80, v = 0.015, r = 0.0101)
	movel(p[0.8276,-0.1894,0.6308,0.0000,0.0000,0.0000], a = 0.80, v = 0.015, r = 0.0101)
	movel(p[0.8335,-0.1704,0.6403,0.0000,0.0000,0.0000], a = 0.80, v = 0.015, r = 0.0063)
	movel(p[0.8335,-0.1579,0.6403,-0.1309,0.0000,0.0000], a = 0.80, v = 0.005, r = 0.0062)
	movel(p[0.8335,-0.1454,0.6403,-0.2618,0.0000,0.0000], a = 0.80, v = 0.005, r = 0.0062)
	movel(p[0.8335,-0.1329,0.6403,-0.3927,0.0000,0.0000], a = 0.80, v = 0.005, r = 0.0062)
	movel(p[0.8335,-0.1204,0.6403,-0.5236,0.0000,0.0000], a = 0.80, v = 0.005, r = 0.0062)
	movel(p[0.8335,-0.1079,0.6403,-0.6545,0.0000,0.0000], a = 0.80, v = 0.005, r = 0.0062)
	movel(p[0.8335,-0.0954,0.6403,-0.7854,0.0000,0.0000], a = 0.80, v = 0.005, r = 0.0062)
	movel(p[0.8335,-0.0829,0.6403,-0.9163,0.0000,0.0000], a = 0.80, v = 0.005, r = 0.0062)
	movel(p[0.8335,-0.0704,0.6403,-1.0472,0.0000,0.0000], a = 0.80, v = 0.005, r = 0.0062)
	movel(p[0.8335,-0.0579,0.6403,-1.1781,0.0000,0.0000], a = 0.80, v = 0.005, r = 0.0062)
	movel(p[0.8335,-0.0454,0.6403,-1.3090,0.0000,0.0000], a = 0.80, v = 0.005, r = 0.0062)
	movel(p[0.8335,-0.0329,0.6403,-1.4399,0.0000,0.0000], a = 0.80, v = 0.005, r = 0.0062)
	movel(p[0.8335,-0.0204,0.6403,-1.5708,0.0000,0.0000], a = 0.80, v = 0.005, r = 0.0062)
	movel(p[0.8335,0.1296,0.6403,-1.5708,0.0000,0.0000], a = 0.80, v = 0.005, r = 0.0000)
	movel(p[0.8335,0.1296,0.6403,-1.5708,0.0000,0.0000], a = 0.80, v = 0.005, r = 0.0000)
	movel(p[0.8335,0.1296,0.6403,-1.5708,0.0000,0.0000], a = 0.80, v = 0.005, r = 0.0000)
	movel(p[0.8335,0.1296,0.6403,-1.5708,0.0000,0.0000], a = 0.80, v = 0.005, r = 0.0000)
	movel(p[0.8335,0.1296,0.6403,-1.5708,0.0000,0.0000], a = 0.80, v = 0.005, r = 0.0000)
	movel(p[0.8335,0.1296,0.6403,-1.5708,0.0000,0.0000], a = 0.80, v = 0.005, r = 0.0000)
	movel(p[0.8335,0.1296,0.6403,-1.5708,0.0000,0.0000], a = 0.80, v = 0.005, r = 0.0000)
	movel(p[0.8335,0.1296,0.6403,-1.5708,0.0000,0.0000], a = 0.80, v = 0.005, r = 0.0000)
	movel(p[0.8335,0.1296,0.6403,-1.5708,0.0000,0.0000], a = 0.80, v = 0.005, r = 0.0000)
	movel(p[0.8335,0.1296,0.6403,-1.5708,0.0000,0.0000], a = 0.80, v = 0.005, r = 0.0000)
	movel(p[0.8335,0.1296,0.6403,-1.5708,0.0000,0.0000], a = 0.80, v = 0.005, r = 0.0000)
	movel(p[0.8335,0.2796,0.6403,-1.5708,0.0000,0.0000], a = 0.80, v = 0.005, r = 0.0000)
	movel(p[0.8602,0.2959,0.6275,-1.3090,0.0000,0.0000], a = 0.80, v = 0.005, r = 0.0000)
	movel(p[0.8868,0.3122,0.6147,-1.0472,0.0000,0.0000], a = 0.80, v = 0.005, r = 0.0000)
	movel(p[0.9134,0.3286,0.6019,-0.7854,0.0000,0.0000], a = 0.80, v = 0.005, r = 0.0000)
	movel(p[0.9401,0.3449,0.5891,-0.5236,0.0000,0.0000], a = 0.80, v = 0.005, r = 0.0000)
	movel(p[0.9667,0.3612,0.5763,-0.2618,0.0000,0.0000], a = 0.80, v = 0.005, r = 0.0000)
	movel(p[0.9933,0.3775,0.5635,0.0000,0.0000,0.0000], a = 0.80, v = 0.005, r = 0.0000)
	
end

my_script()
