
def my_script():
	movel(p[0.7060,-0.3360,0.0350,0.0000,0.0000,0.0000], a = 0.80, v = 0.06, r = 0.0156)
	movel(p[0.7011,-0.3051,0.0350,0.0000,0.0000,0.0000], a = 0.80, v = 0.06, r = 0.0156)
	movel(p[0.6869,-0.2772,0.0351,0.0000,0.0000,0.0000], a = 0.80, v = 0.06, r = 0.0156)
	movel(p[0.6648,-0.2551,0.0352,0.0000,0.0000,0.0000], a = 0.80, v = 0.06, r = 0.0156)
	movel(p[0.6369,-0.2409,0.0352,0.0000,0.0000,0.0000], a = 0.80, v = 0.06, r = 0.0156)
	movel(p[0.6060,-0.2360,0.0352,0.0000,0.0000,0.0000], a = 0.80, v = 0.06, r = 0.0156)
	movel(p[0.5751,-0.2409,0.0353,0.0000,0.0000,0.0000], a = 0.80, v = 0.06, r = 0.0156)
	movel(p[0.5472,-0.2551,0.0353,0.0000,0.0000,0.0000], a = 0.80, v = 0.06, r = 0.0156)
	movel(p[0.5251,-0.2772,0.0354,0.0000,0.0000,0.0000], a = 0.80, v = 0.06, r = 0.0156)
	movel(p[0.5109,-0.3051,0.0355,0.0000,0.0000,0.0000], a = 0.80, v = 0.06, r = 0.0156)
	movel(p[0.5060,-0.3360,0.0355,0.0000,0.0000,0.0000], a = 0.80, v = 0.06, r = 0.0156)
	movel(p[0.5109,-0.3669,0.0355,0.0000,0.0000,0.0000], a = 0.80, v = 0.06, r = 0.0156)
	movel(p[0.5251,-0.3948,0.0356,0.0000,0.0000,0.0000], a = 0.80, v = 0.06, r = 0.0156)
	movel(p[0.5472,-0.4169,0.0357,0.0000,0.0000,0.0000], a = 0.80, v = 0.06, r = 0.0156)
	movel(p[0.5751,-0.4311,0.0357,0.0000,0.0000,0.0000], a = 0.80, v = 0.06, r = 0.0156)
	movel(p[0.6060,-0.4360,0.0357,0.0000,0.0000,0.0000], a = 0.80, v = 0.06, r = 0.0156)
	movel(p[0.6369,-0.4311,0.0358,0.0000,0.0000,0.0000], a = 0.80, v = 0.06, r = 0.0156)
	movel(p[0.6648,-0.4169,0.0358,0.0000,0.0000,0.0000], a = 0.80, v = 0.06, r = 0.0156)
	movel(p[0.6869,-0.3948,0.0359,0.0000,0.0000,0.0000], a = 0.80, v = 0.06, r = 0.0156)
	movel(p[0.7011,-0.3669,0.0360,0.0000,0.0000,0.0000], a = 0.80, v = 0.06, r = 0.0156)
	movel(p[0.6060,-0.3360,0.0350,0.0000,0.0000,0.0000], a = 0.80, v = 0.06, r = 0.0156)
	movel(p[0.6060,-0.3360,0.0920,0.0000,0.0000,0.0000], a = 0.80, v = 0.06, r = 0.0100)
	movel(p[0.6060,-0.3360,0.1120,0.0000,0.0000,0.0000], a = 0.80, v = 0.01, r = 0.0059)
	movel(p[0.6060,-0.3353,0.1239,-0.1074,-0.0000,0.0000], a = 0.80, v = 0.01, r = 0.0059)
	movel(p[0.6060,-0.3335,0.1356,-0.1899,0.0000,0.0000], a = 0.80, v = 0.01, r = 0.0059)
	movel(p[0.6060,-0.3310,0.1472,-0.2317,0.0000,0.0000], a = 0.80, v = 0.01, r = 0.0059)
	movel(p[0.6060,-0.3283,0.1588,-0.2245,0.0000,0.0000], a = 0.80, v = 0.01, r = 0.0059)
	movel(p[0.6060,-0.3259,0.1704,-0.1637,0.0000,-0.0000], a = 0.80, v = 0.01, r = 0.0059)
	movel(p[0.6060,-0.3246,0.1822,-0.0492,0.0000,-0.0000], a = 0.80, v = 0.01, r = 0.0059)
	movel(p[0.6060,-0.3249,0.1941,0.1052,0.0000,0.0000], a = 0.80, v = 0.01, r = 0.0059)
	movel(p[0.6060,-0.3271,0.2058,0.2679,-0.0000,-0.0000], a = 0.80, v = 0.01, r = 0.0059)
	movel(p[0.6060,-0.3311,0.2170,0.4048,-0.0000,-0.0000], a = 0.80, v = 0.01, r = 0.0059)
	movel(p[0.6060,-0.3363,0.2276,0.5003,0.0000,0.0000], a = 0.80, v = 0.01, r = 0.0059)
	movel(p[0.6060,-0.3423,0.2379,0.5525,-0.0000,-0.0000], a = 0.80, v = 0.01, r = 0.0059)
	movel(p[0.6060,-0.3487,0.2479,0.5628,0.0000,0.0000], a = 0.80, v = 0.01, r = 0.0059)
	movel(p[0.6060,-0.3549,0.2581,0.5280,-0.0000,-0.0000], a = 0.80, v = 0.01, r = 0.0059)
	movel(p[0.6060,-0.3604,0.2686,0.4367,-0.0000,-0.0000], a = 0.80, v = 0.01, r = 0.0059)
	movel(p[0.6060,-0.3646,0.2797,0.2679,0.0000,0.0000], a = 0.80, v = 0.01, r = 0.0059)
	movel(p[0.6060,-0.3663,0.2914,0.0112,0.0000,0.0000], a = 0.80, v = 0.01, r = 0.0059)
	movel(p[0.6060,-0.3647,0.3031,-0.2799,-0.0000,0.0000], a = 0.80, v = 0.01, r = 0.0059)
	movel(p[0.6060,-0.3601,0.3140,-0.5157,0.0000,-0.0000], a = 0.80, v = 0.01, r = 0.0059)
	movel(p[0.6060,-0.3534,0.3238,-0.6710,0.0000,0.0000], a = 0.80, v = 0.01, r = 0.0059)
	movel(p[0.6060,-0.3455,0.3327,-0.7660,-0.0000,0.0000], a = 0.80, v = 0.01, r = 0.0059)
	movel(p[0.6060,-0.3370,0.3410,-0.8203,0.0000,0.0000], a = 0.80, v = 0.01, r = 0.0059)
	movel(p[0.6060,-0.3282,0.3490,-0.8451,0.0000,-0.0000], a = 0.80, v = 0.01, r = 0.0059)
	movel(p[0.6060,-0.3193,0.3569,-0.8446,0.0000,-0.0000], a = 0.80, v = 0.01, r = 0.0059)
	movel(p[0.6060,-0.3105,0.3649,-0.8170,0.0000,0.0000], a = 0.80, v = 0.01, r = 0.0059)
	movel(p[0.6060,-0.3021,0.3733,-0.7530,-0.0000,0.0000], a = 0.80, v = 0.01, r = 0.0059)
	movel(p[0.6060,-0.2945,0.3824,-0.6290,0.0000,0.0000], a = 0.80, v = 0.01, r = 0.0059)
	movel(p[0.6060,-0.2885,0.3926,-0.3939,0.0000,0.0000], a = 0.80, v = 0.01, r = 0.0059)
	movel(p[0.6060,-0.2861,0.4042,0.0000,0.0000,0.0000], a = 0.80, v = 0.01, r = 0.0059)
	movel(p[0.6060,-0.2887,0.4157,0.4270,0.0000,0.0000], a = 0.80, v = 0.01, r = 0.0059)
	movel(p[0.6060,-0.2952,0.4256,0.6958,-0.0000,-0.0000], a = 0.80, v = 0.01, r = 0.0059)
	movel(p[0.6060,-0.3035,0.4341,0.8449,0.0000,0.0000], a = 0.80, v = 0.01, r = 0.0059)
	movel(p[0.6060,-0.3127,0.4415,0.9308,-0.0000,-0.0000], a = 0.80, v = 0.01, r = 0.0059)
	movel(p[0.6060,-0.3225,0.4484,0.9822,0.0000,0.0000], a = 0.80, v = 0.01, r = 0.0059)
	movel(p[0.6060,-0.3325,0.4548,1.0119,0.0000,0.0000], a = 0.80, v = 0.01, r = 0.0059)
	movel(p[0.6060,-0.3426,0.4610,1.0261,0.0000,0.0000], a = 0.80, v = 0.01, r = 0.0059)
	movel(p[0.6060,-0.3528,0.4672,1.0269,-0.0000,-0.0000], a = 0.80, v = 0.01, r = 0.0059)
	movel(p[0.6060,-0.3629,0.4734,1.0142,0.0000,0.0000], a = 0.80, v = 0.01, r = 0.0059)
	movel(p[0.6060,-0.3729,0.4798,0.9846,0.0000,0.0000], a = 0.80, v = 0.01, r = 0.0059)
	movel(p[0.6060,-0.3826,0.4866,0.9302,0.0000,0.0000], a = 0.80, v = 0.01, r = 0.0059)
	movel(p[0.6060,-0.3918,0.4941,0.8314,0.0000,0.0000], a = 0.80, v = 0.01, r = 0.0059)
	movel(p[0.6060,-0.3999,0.5028,0.6373,-0.0000,-0.0000], a = 0.80, v = 0.01, r = 0.0059)
	movel(p[0.6060,-0.4051,0.5134,0.2243,-0.0000,-0.0000], a = 0.80, v = 0.01, r = 0.0059)
	movel(p[0.6060,-0.4042,0.5251,-0.3706,0.0000,0.0000], a = 0.80, v = 0.01, r = 0.0059)
	movel(p[0.6060,-0.3977,0.5350,-0.7384,0.0000,0.0000], a = 0.80, v = 0.01, r = 0.0059)
	movel(p[0.6060,-0.3889,0.5429,-0.9144,-0.0000,0.0000], a = 0.80, v = 0.01, r = 0.0059)
	movel(p[0.6060,-0.3791,0.5497,-1.0092,-0.0000,0.0000], a = 0.80, v = 0.01, r = 0.0059)
	movel(p[0.6060,-0.3689,0.5557,-1.0659,0.0000,0.0000], a = 0.80, v = 0.01, r = 0.0059)
	movel(p[0.6060,-0.3584,0.5613,-1.1016,0.0000,-0.0000], a = 0.80, v = 0.01, r = 0.0059)
	movel(p[0.6060,-0.3477,0.5665,-1.1241,0.0000,0.0000], a = 0.80, v = 0.01, r = 0.0059)
	movel(p[0.6060,-0.3370,0.5716,-1.1371,0.0000,0.0000], a = 0.80, v = 0.01, r = 0.0059)
	movel(p[0.6060,-0.3262,0.5765,-1.1423,0.0000,0.0000], a = 0.80, v = 0.01, r = 0.0059)
	movel(p[0.6060,-0.3154,0.5815,-1.1405,-0.0000,0.0000], a = 0.80, v = 0.01, r = 0.0059)
	movel(p[0.6060,-0.3046,0.5865,-1.1312,-0.0000,0.0000], a = 0.80, v = 0.01, r = 0.0059)
	movel(p[0.6060,-0.2939,0.5916,-1.1127,-0.0000,0.0000], a = 0.80, v = 0.01, r = 0.0059)
	movel(p[0.6060,-0.2833,0.5970,-1.0815,0.0000,0.0000], a = 0.80, v = 0.01, r = 0.0059)
	movel(p[0.6060,-0.2729,0.6028,-1.0300,0.0000,-0.0000], a = 0.80, v = 0.01, r = 0.0059)
	movel(p[0.6060,-0.2630,0.6094,-0.9403,-0.0000,0.0000], a = 0.80, v = 0.01, r = 0.0059)
	movel(p[0.6060,-0.2540,0.6171,-0.7615,0.0000,0.0000], a = 0.80, v = 0.01, r = 0.0059)
	movel(p[0.6060,-0.2475,0.6270,-0.3277,-0.0000,0.0000], a = 0.80, v = 0.01, r = 0.0058)
	movel(p[0.6060,-0.2481,0.6385,0.4129,0.0000,0.0000], a = 0.80, v = 0.01, r = 0.0058)
	movel(p[0.6060,-0.2552,0.6480,0.8178,0.0000,0.0000], a = 0.80, v = 0.01, r = 0.0058)
	movel(p[0.6060,-0.2646,0.6552,0.9885,0.0000,0.0000], a = 0.80, v = 0.01, r = 0.0058)
	movel(p[0.6060,-0.2748,0.6613,1.0772,0.0000,0.0000], a = 0.80, v = 0.01, r = 0.0058)
	movel(p[0.6060,-0.2854,0.6666,1.1304,0.0000,0.0000], a = 0.80, v = 0.01, r = 0.0058)
	movel(p[0.6060,-0.2963,0.6714,1.1648,-0.0000,-0.0000], a = 0.80, v = 0.01, r = 0.0058)
	movel(p[0.6060,-0.3073,0.6760,1.1879,-0.0000,-0.0000], a = 0.80, v = 0.01, r = 0.0058)
	movel(p[0.6060,-0.3183,0.6804,1.2034,0.0000,0.0000], a = 0.80, v = 0.01, r = 0.0058)
	movel(p[0.6060,-0.3294,0.6846,1.2131,0.0000,0.0000], a = 0.80, v = 0.01, r = 0.0058)
	movel(p[0.6060,-0.3406,0.6887,1.2182,0.0000,0.0000], a = 0.80, v = 0.03, r = 0.0058)
	movel(p[0.6060,-0.3517,0.6928,1.2191,0.0000,0.0000], a = 0.80, v = 0.03, r = 0.0058)
	movel(p[0.6060,-0.3629,0.6969,1.2157,0.0000,0.0000], a = 0.80, v = 0.03, r = 0.0058)
	movel(p[0.6060,-0.3740,0.7011,1.2079,-0.0000,-0.0000], a = 0.80, v = 0.03, r = 0.0058)
	movel(p[0.6060,-0.3851,0.7054,1.1944,-0.0000,-0.0000], a = 0.80, v = 0.03, r = 0.0058)
	movel(p[0.6060,-0.3961,0.7098,1.1735,0.0000,0.0000], a = 0.80, v = 0.03, r = 0.0058)
	movel(p[0.6060,-0.4070,0.7146,1.1415,-0.0000,-0.0000], a = 0.80, v = 0.03, r = 0.0058)
	movel(p[0.6060,-0.4177,0.7198,1.0909,0.0000,0.0000], a = 0.80, v = 0.03, r = 0.0058)
	movel(p[0.6060,-0.4280,0.7257,1.0035,0.0000,0.0000], a = 0.80, v = 0.03, r = 0.0058)
	movel(p[0.6060,-0.4375,0.7328,0.8241,0.0000,0.0000], a = 0.80, v = 0.03, r = 0.0058)
	movel(p[0.6060,-0.4443,0.7424,0.3321,0.0000,0.0000], a = 0.80, v = 0.03, r = 0.0057)
	movel(p[0.6060,-0.4430,0.7538,-0.5323,0.0000,0.0000], a = 0.80, v = 0.03, r = 0.0057)
	movel(p[0.6060,-0.4349,0.7624,-0.9088,-0.0000,0.0000], a = 0.80, v = 0.03, r = 0.0057)
	movel(p[0.6060,-0.4249,0.7689,-1.0572,0.0000,0.0000], a = 0.80, v = 0.03, r = 0.0057)
	movel(p[0.6060,-0.4144,0.7743,-1.1345,0.0000,-0.0000], a = 0.80, v = 0.03, r = 0.0057)
	movel(p[0.6060,-0.4035,0.7790,-1.1814,0.0000,0.0000], a = 0.80, v = 0.03, r = 0.0057)
	movel(p[0.6060,-0.3924,0.7833,-1.2127,0.0000,0.0000], a = 0.80, v = 0.03, r = 0.0057)
	movel(p[0.6060,-0.3812,0.7874,-1.2348,0.0000,-0.0000], a = 0.80, v = 0.03, r = 0.0057)
	movel(p[0.6060,-0.3700,0.7912,-1.2498,0.0000,0.0000], a = 0.80, v = 0.03, r = 0.0057)
	movel(p[0.6060,-0.3587,0.7949,-1.2589,0.0000,-0.0000], a = 0.80, v = 0.03, r = 0.0057)
	movel(p[0.6060,-0.3473,0.7985,-1.2670,0.0000,0.0000], a = 0.80, v = 0.03, r = 0.0057)
	movel(p[0.6060,-0.3360,0.8020,-1.2769,0.0000,0.0000], a = 0.80, v = 0.03, r = 0.0057)
	movel(p[0.6060,-0.2860,0.8020,-1.3259,0.0000,0.0000], a = 0.80, v = 0.03, r = 0.0057)
	movel(p[0.6060,-0.2360,0.8020,-1.3749,0.0000,0.0000], a = 0.80, v = 0.03, r = 0.0057)
	movel(p[0.6060,-0.1860,0.8020,-1.4239,0.0000,0.0000], a = 0.80, v = 0.03, r = 0.0057)
	movel(p[0.6060,-0.1360,0.8020,-1.4728,0.0000,0.0000], a = 0.80, v = 0.03, r = 0.0057)
	movel(p[0.6060,-0.0860,0.8020,-1.5218,0.0000,0.0000], a = 0.80, v = 0.03, r = 0.0057)
	movel(p[0.6060,-0.0360,0.8020,-1.5708,0.0000,0.0000], a = 0.80, v = 0.03, r = 0.0057)
	movel(p[0.6706,-0.0237,0.7623,-1.3090,0.0000,0.0000], a = 0.80, v = 0.03, r = 0.0057)
	movel(p[0.7351,-0.0115,0.7225,-1.0472,0.0000,0.0000], a = 0.80, v = 0.03, r = 0.0057)
	movel(p[0.7997,0.0008,0.6828,-0.7854,0.0000,0.0000], a = 0.80, v = 0.03, r = 0.0057)
	movel(p[0.8642,0.0131,0.6430,-0.5236,0.0000,0.0000], a = 0.80, v = 0.03, r = 0.0057)
	movel(p[0.9288,0.0253,0.6033,-0.2618,0.0000,0.0000], a = 0.80, v = 0.03, r = 0.0057)
	movel(p[0.9933,0.0376,0.5635,0.0000,0.0000,0.0000], a = 0.80, v = 0.03, r = 0.0000)
	movel(p[0.8356,0.1287,0.0350,0.0000,0.0000,0.0000], a = 0.80, v = 0.06, r = 0.0101)
	movel(p[0.8335,0.1488,0.0350,0.0000,0.0000,0.0000], a = 0.80, v = 0.06, r = 0.0101)
	movel(p[0.8275,0.1681,0.0351,0.0000,0.0000,0.0000], a = 0.80, v = 0.06, r = 0.0101)
	movel(p[0.8176,0.1858,0.0351,0.0000,0.0000,0.0000], a = 0.80, v = 0.06, r = 0.0101)
	movel(p[0.8045,0.2012,0.0351,0.0000,0.0000,0.0000], a = 0.80, v = 0.06, r = 0.0101)
	movel(p[0.7885,0.2136,0.0352,0.0000,0.0000,0.0000], a = 0.80, v = 0.06, r = 0.0101)
	movel(p[0.7703,0.2225,0.0352,0.0000,0.0000,0.0000], a = 0.80, v = 0.06, r = 0.0101)
	movel(p[0.7507,0.2275,0.0352,0.0000,0.0000,0.0000], a = 0.80, v = 0.06, r = 0.0101)
	movel(p[0.7305,0.2286,0.0353,0.0000,0.0000,0.0000], a = 0.80, v = 0.06, r = 0.0101)
	movel(p[0.7105,0.2255,0.0353,0.0000,0.0000,0.0000], a = 0.80, v = 0.06, r = 0.0101)
	movel(p[0.6915,0.2185,0.0353,0.0000,0.0000,0.0000], a = 0.80, v = 0.06, r = 0.0101)
	movel(p[0.6744,0.2078,0.0354,0.0000,0.0000,0.0000], a = 0.80, v = 0.06, r = 0.0101)
	movel(p[0.6597,0.1938,0.0354,0.0000,0.0000,0.0000], a = 0.80, v = 0.06, r = 0.0101)
	movel(p[0.6481,0.1772,0.0354,0.0000,0.0000,0.0000], a = 0.80, v = 0.06, r = 0.0101)
	movel(p[0.6402,0.1586,0.0355,0.0000,0.0000,0.0000], a = 0.80, v = 0.06, r = 0.0101)
	movel(p[0.6361,0.1388,0.0355,0.0000,0.0000,0.0000], a = 0.80, v = 0.06, r = 0.0101)
	movel(p[0.6361,0.1186,0.0355,0.0000,0.0000,0.0000], a = 0.80, v = 0.06, r = 0.0101)
	movel(p[0.6402,0.0988,0.0355,0.0000,0.0000,0.0000], a = 0.80, v = 0.06, r = 0.0101)
	movel(p[0.6481,0.0802,0.0356,0.0000,0.0000,0.0000], a = 0.80, v = 0.06, r = 0.0101)
	movel(p[0.6597,0.0636,0.0356,0.0000,0.0000,0.0000], a = 0.80, v = 0.06, r = 0.0101)
	movel(p[0.6744,0.0496,0.0356,0.0000,0.0000,0.0000], a = 0.80, v = 0.06, r = 0.0101)
	movel(p[0.6915,0.0389,0.0357,0.0000,0.0000,0.0000], a = 0.80, v = 0.06, r = 0.0101)
	movel(p[0.7105,0.0319,0.0357,0.0000,0.0000,0.0000], a = 0.80, v = 0.06, r = 0.0101)
	movel(p[0.7305,0.0288,0.0357,0.0000,0.0000,0.0000], a = 0.80, v = 0.06, r = 0.0101)
	movel(p[0.7507,0.0298,0.0358,0.0000,0.0000,0.0000], a = 0.80, v = 0.06, r = 0.0101)
	movel(p[0.7703,0.0349,0.0358,0.0000,0.0000,0.0000], a = 0.80, v = 0.06, r = 0.0101)
	movel(p[0.7885,0.0438,0.0358,0.0000,0.0000,0.0000], a = 0.80, v = 0.06, r = 0.0101)
	movel(p[0.8045,0.0562,0.0359,0.0000,0.0000,0.0000], a = 0.80, v = 0.06, r = 0.0101)
	movel(p[0.8176,0.0716,0.0359,0.0000,0.0000,0.0000], a = 0.80, v = 0.06, r = 0.0101)
	movel(p[0.8275,0.0893,0.0359,0.0000,0.0000,0.0000], a = 0.80, v = 0.06, r = 0.0101)
	movel(p[0.8335,0.1086,0.0360,0.0000,0.0000,0.0000], a = 0.80, v = 0.06, r = 0.0101)
	movel(p[0.8356,0.1287,0.0500,0.0000,0.0000,0.0000], a = 0.80, v = 0.01, r = 0.0101)
	movel(p[0.8336,0.1485,0.0595,0.0000,0.0000,0.0000], a = 0.80, v = 0.01, r = 0.0101)
	movel(p[0.8277,0.1675,0.0690,0.0000,0.0000,0.0000], a = 0.80, v = 0.01, r = 0.0101)
	movel(p[0.8182,0.1850,0.0786,0.0000,0.0000,0.0000], a = 0.80, v = 0.01, r = 0.0101)
	movel(p[0.8054,0.2003,0.0881,0.0000,0.0000,0.0000], a = 0.80, v = 0.01, r = 0.0101)
	movel(p[0.7898,0.2127,0.0976,0.0000,0.0000,0.0000], a = 0.80, v = 0.01, r = 0.0101)
	movel(p[0.7721,0.2218,0.1071,0.0000,0.0000,0.0000], a = 0.80, v = 0.01, r = 0.0101)
	movel(p[0.7530,0.2272,0.1166,0.0000,0.0000,0.0000], a = 0.80, v = 0.01, r = 0.0101)
	movel(p[0.7331,0.2287,0.1262,0.0000,0.0000,0.0000], a = 0.80, v = 0.01, r = 0.0101)
	movel(p[0.7134,0.2262,0.1357,0.0000,0.0000,0.0000], a = 0.80, v = 0.01, r = 0.0101)
	movel(p[0.6945,0.2199,0.1452,0.0000,0.0000,0.0000], a = 0.80, v = 0.01, r = 0.0101)
	movel(p[0.6772,0.2099,0.1547,0.0000,0.0000,0.0000], a = 0.80, v = 0.01, r = 0.0101)
	movel(p[0.6623,0.1968,0.1643,0.0000,0.0000,0.0000], a = 0.80, v = 0.01, r = 0.0101)
	movel(p[0.6503,0.1809,0.1738,0.0000,0.0000,0.0000], a = 0.80, v = 0.01, r = 0.0101)
	movel(p[0.6416,0.1630,0.1833,0.0000,0.0000,0.0000], a = 0.80, v = 0.01, r = 0.0101)
	movel(p[0.6367,0.1437,0.1928,0.0000,0.0000,0.0000], a = 0.80, v = 0.01, r = 0.0101)
	movel(p[0.6357,0.1238,0.2023,0.0000,0.0000,0.0000], a = 0.80, v = 0.01, r = 0.0101)
	movel(p[0.6386,0.1041,0.2119,0.0000,0.0000,0.0000], a = 0.80, v = 0.01, r = 0.0101)
	movel(p[0.6454,0.0854,0.2214,0.0000,0.0000,0.0000], a = 0.80, v = 0.01, r = 0.0101)
	movel(p[0.6558,0.0684,0.2309,0.0000,0.0000,0.0000], a = 0.80, v = 0.01, r = 0.0101)
	movel(p[0.6693,0.0538,0.2404,0.0000,0.0000,0.0000], a = 0.80, v = 0.01, r = 0.0101)
	movel(p[0.6855,0.0421,0.2499,0.0000,0.0000,0.0000], a = 0.80, v = 0.01, r = 0.0101)
	movel(p[0.7036,0.0339,0.2595,0.0000,0.0000,0.0000], a = 0.80, v = 0.01, r = 0.0101)
	movel(p[0.7230,0.0295,0.2690,0.0000,0.0000,0.0000], a = 0.80, v = 0.01, r = 0.0101)
	movel(p[0.7429,0.0290,0.2785,0.0000,0.0000,0.0000], a = 0.80, v = 0.01, r = 0.0101)
	movel(p[0.7625,0.0324,0.2880,0.0000,0.0000,0.0000], a = 0.80, v = 0.01, r = 0.0101)
	movel(p[0.7811,0.0396,0.2976,0.0000,0.0000,0.0000], a = 0.80, v = 0.01, r = 0.0101)
	movel(p[0.7978,0.0504,0.3071,0.0000,0.0000,0.0000], a = 0.80, v = 0.01, r = 0.0101)
	movel(p[0.8121,0.0643,0.3166,0.0000,0.0000,0.0000], a = 0.80, v = 0.01, r = 0.0101)
	movel(p[0.8233,0.0807,0.3261,0.0000,0.0000,0.0000], a = 0.80, v = 0.01, r = 0.0101)
	movel(p[0.8311,0.0991,0.3356,0.0000,0.0000,0.0000], a = 0.80, v = 0.01, r = 0.0101)
	movel(p[0.8351,0.1186,0.3452,0.0000,0.0000,0.0000], a = 0.80, v = 0.01, r = 0.0101)
	movel(p[0.8351,0.1385,0.3547,0.0000,0.0000,0.0000], a = 0.80, v = 0.03, r = 0.0101)
	movel(p[0.8312,0.1580,0.3642,0.0000,0.0000,0.0000], a = 0.80, v = 0.03, r = 0.0101)
	movel(p[0.8235,0.1764,0.3737,0.0000,0.0000,0.0000], a = 0.80, v = 0.03, r = 0.0101)
	movel(p[0.8123,0.1928,0.3832,0.0000,0.0000,0.0000], a = 0.80, v = 0.03, r = 0.0101)
	movel(p[0.7981,0.2068,0.3928,0.0000,0.0000,0.0000], a = 0.80, v = 0.03, r = 0.0101)
	movel(p[0.7814,0.2176,0.4023,0.0000,0.0000,0.0000], a = 0.80, v = 0.03, r = 0.0101)
	movel(p[0.7628,0.2249,0.4118,0.0000,0.0000,0.0000], a = 0.80, v = 0.03, r = 0.0101)
	movel(p[0.7432,0.2284,0.4213,0.0000,0.0000,0.0000], a = 0.80, v = 0.03, r = 0.0101)
	movel(p[0.7233,0.2279,0.4309,0.0000,0.0000,0.0000], a = 0.80, v = 0.03, r = 0.0101)
	movel(p[0.7039,0.2235,0.4404,0.0000,0.0000,0.0000], a = 0.80, v = 0.03, r = 0.0101)
	movel(p[0.6858,0.2154,0.4499,0.0000,0.0000,0.0000], a = 0.80, v = 0.03, r = 0.0101)
	movel(p[0.6696,0.2038,0.4594,0.0000,0.0000,0.0000], a = 0.80, v = 0.03, r = 0.0101)
	movel(p[0.6560,0.1893,0.4689,0.0000,0.0000,0.0000], a = 0.80, v = 0.03, r = 0.0101)
	movel(p[0.6456,0.1723,0.4785,0.0000,0.0000,0.0000], a = 0.80, v = 0.03, r = 0.0101)
	movel(p[0.6387,0.1536,0.4880,0.0000,0.0000,0.0000], a = 0.80, v = 0.03, r = 0.0101)
	movel(p[0.6357,0.1339,0.4975,0.0000,0.0000,0.0000], a = 0.80, v = 0.03, r = 0.0101)
	movel(p[0.6366,0.1140,0.5070,0.0000,0.0000,0.0000], a = 0.80, v = 0.03, r = 0.0101)
	movel(p[0.6415,0.0947,0.5165,0.0000,0.0000,0.0000], a = 0.80, v = 0.03, r = 0.0101)
	movel(p[0.6501,0.0768,0.5261,0.0000,0.0000,0.0000], a = 0.80, v = 0.03, r = 0.0101)
	movel(p[0.6621,0.0609,0.5356,0.0000,0.0000,0.0000], a = 0.80, v = 0.03, r = 0.0101)
	movel(p[0.6770,0.0477,0.5451,0.0000,0.0000,0.0000], a = 0.80, v = 0.03, r = 0.0101)
	movel(p[0.6942,0.0377,0.5546,0.0000,0.0000,0.0000], a = 0.80, v = 0.03, r = 0.0101)
	movel(p[0.7130,0.0313,0.5642,0.0000,0.0000,0.0000], a = 0.80, v = 0.03, r = 0.0101)
	movel(p[0.7328,0.0287,0.5737,0.0000,0.0000,0.0000], a = 0.80, v = 0.03, r = 0.0101)
	movel(p[0.7526,0.0302,0.5832,0.0000,0.0000,0.0000], a = 0.80, v = 0.03, r = 0.0101)
	movel(p[0.7718,0.0355,0.5927,0.0000,0.0000,0.0000], a = 0.80, v = 0.03, r = 0.0101)
	movel(p[0.7896,0.0445,0.6022,0.0000,0.0000,0.0000], a = 0.80, v = 0.03, r = 0.0101)
	movel(p[0.8052,0.0569,0.6118,0.0000,0.0000,0.0000], a = 0.80, v = 0.03, r = 0.0101)
	movel(p[0.8180,0.0721,0.6213,0.0000,0.0000,0.0000], a = 0.80, v = 0.03, r = 0.0101)
	movel(p[0.8276,0.0896,0.6308,0.0000,0.0000,0.0000], a = 0.80, v = 0.03, r = 0.0101)
	movel(p[0.8335,0.1086,0.6403,0.0000,0.0000,0.0000], a = 0.80, v = 0.03, r = 0.0101)
	movel(p[0.8335,0.1586,0.6403,-0.2618,0.0000,0.0000], a = 0.80, v = 0.03, r = 0.0101)
	movel(p[0.8335,0.2086,0.6403,-0.5236,0.0000,0.0000], a = 0.80, v = 0.03, r = 0.0101)
	movel(p[0.8335,0.2586,0.6403,-0.7854,0.0000,0.0000], a = 0.80, v = 0.03, r = 0.0101)
	movel(p[0.8335,0.3086,0.6403,-1.0472,0.0000,0.0000], a = 0.80, v = 0.03, r = 0.0101)
	movel(p[0.8335,0.3586,0.6403,-1.3090,0.0000,0.0000], a = 0.80, v = 0.03, r = 0.0101)
	movel(p[0.8335,0.4086,0.6403,-1.5708,0.0000,0.0000], a = 0.80, v = 0.03, r = 0.0101)
	movel(p[0.8602,0.3883,0.6275,-1.3090,0.0000,0.0000], a = 0.80, v = 0.03, r = 0.0101)
	movel(p[0.8868,0.3680,0.6147,-1.0472,0.0000,0.0000], a = 0.80, v = 0.03, r = 0.0101)
	movel(p[0.9134,0.3477,0.6019,-0.7854,0.0000,0.0000], a = 0.80, v = 0.03, r = 0.0101)
	movel(p[0.9401,0.3275,0.5891,-0.5236,0.0000,0.0000], a = 0.80, v = 0.03, r = 0.0101)
	movel(p[0.9667,0.3072,0.5763,-0.2618,0.0000,0.0000], a = 0.80, v = 0.03, r = 0.0101)
	movel(p[0.9933,0.2869,0.5635,0.0000,0.0000,0.0000], a = 0.80, v = 0.03, r = 0.0000)
	
end

my_script()
