
def my_script():
	movel(p[0.7060,-0.4306,0.0350,0.0000,0.0000,0.0000], a = 0.80, v = 0.06, r = 0.0156)
	movel(p[0.7011,-0.3997,0.0350,0.0000,0.0000,0.0000], a = 0.80, v = 0.06, r = 0.0156)
	movel(p[0.6869,-0.3718,0.0351,0.0000,0.0000,0.0000], a = 0.80, v = 0.06, r = 0.0156)
	movel(p[0.6648,-0.3497,0.0352,0.0000,0.0000,0.0000], a = 0.80, v = 0.06, r = 0.0156)
	movel(p[0.6369,-0.3355,0.0352,0.0000,0.0000,0.0000], a = 0.80, v = 0.06, r = 0.0156)
	movel(p[0.6060,-0.3306,0.0352,0.0000,0.0000,0.0000], a = 0.80, v = 0.06, r = 0.0156)
	movel(p[0.5751,-0.3355,0.0353,0.0000,0.0000,0.0000], a = 0.80, v = 0.06, r = 0.0156)
	movel(p[0.5472,-0.3497,0.0353,0.0000,0.0000,0.0000], a = 0.80, v = 0.06, r = 0.0156)
	movel(p[0.5251,-0.3718,0.0354,0.0000,0.0000,0.0000], a = 0.80, v = 0.06, r = 0.0156)
	movel(p[0.5109,-0.3997,0.0355,0.0000,0.0000,0.0000], a = 0.80, v = 0.06, r = 0.0156)
	movel(p[0.5060,-0.4306,0.0355,0.0000,0.0000,0.0000], a = 0.80, v = 0.06, r = 0.0156)
	movel(p[0.5109,-0.4615,0.0355,0.0000,0.0000,0.0000], a = 0.80, v = 0.06, r = 0.0156)
	movel(p[0.5251,-0.4894,0.0356,0.0000,0.0000,0.0000], a = 0.80, v = 0.06, r = 0.0156)
	movel(p[0.5472,-0.5115,0.0357,0.0000,0.0000,0.0000], a = 0.80, v = 0.06, r = 0.0156)
	movel(p[0.5751,-0.5257,0.0357,0.0000,0.0000,0.0000], a = 0.80, v = 0.06, r = 0.0156)
	movel(p[0.6060,-0.5306,0.0357,0.0000,0.0000,0.0000], a = 0.80, v = 0.06, r = 0.0156)
	movel(p[0.6369,-0.5257,0.0358,0.0000,0.0000,0.0000], a = 0.80, v = 0.06, r = 0.0156)
	movel(p[0.6648,-0.5115,0.0358,0.0000,0.0000,0.0000], a = 0.80, v = 0.06, r = 0.0156)
	movel(p[0.6869,-0.4894,0.0359,0.0000,0.0000,0.0000], a = 0.80, v = 0.06, r = 0.0156)
	movel(p[0.7011,-0.4615,0.0360,0.0000,0.0000,0.0000], a = 0.80, v = 0.06, r = 0.0156)
	movel(p[0.6060,-0.4306,0.0350,0.0000,0.0000,0.0000], a = 0.80, v = 0.06, r = 0.0156)
	movel(p[0.6060,-0.4306,0.0920,0.0000,0.0000,0.0000], a = 0.80, v = 0.06, r = 0.0100)
	movel(p[0.6060,-0.4306,0.1120,0.0000,0.0000,0.0000], a = 0.80, v = 0.01, r = 0.0059)
	movel(p[0.6060,-0.4299,0.1239,0.0000,0.0000,0.0000], a = 0.80, v = 0.01, r = 0.0059)
	movel(p[0.6060,-0.4281,0.1356,0.0000,0.0000,0.0000], a = 0.80, v = 0.01, r = 0.0059)
	movel(p[0.6060,-0.4256,0.1472,0.0000,0.0000,0.0000], a = 0.80, v = 0.01, r = 0.0059)
	movel(p[0.6060,-0.4229,0.1588,0.0000,0.0000,0.0000], a = 0.80, v = 0.01, r = 0.0059)
	movel(p[0.6060,-0.4205,0.1704,0.0000,0.0000,0.0000], a = 0.80, v = 0.01, r = 0.0059)
	movel(p[0.6060,-0.4192,0.1822,0.0000,0.0000,0.0000], a = 0.80, v = 0.01, r = 0.0059)
	movel(p[0.6060,-0.4195,0.1941,0.0000,0.0000,0.0000], a = 0.80, v = 0.01, r = 0.0059)
	movel(p[0.6060,-0.4217,0.2058,0.0000,0.0000,0.0000], a = 0.80, v = 0.01, r = 0.0059)
	movel(p[0.6060,-0.4257,0.2170,0.0000,0.0000,0.0000], a = 0.80, v = 0.01, r = 0.0059)
	movel(p[0.6060,-0.4309,0.2276,0.0000,0.0000,0.0000], a = 0.80, v = 0.01, r = 0.0059)
	movel(p[0.6060,-0.4369,0.2379,0.0000,0.0000,0.0000], a = 0.80, v = 0.01, r = 0.0059)
	movel(p[0.6060,-0.4432,0.2479,0.0000,0.0000,0.0000], a = 0.80, v = 0.01, r = 0.0059)
	movel(p[0.6060,-0.4494,0.2581,0.0000,0.0000,0.0000], a = 0.80, v = 0.01, r = 0.0059)
	movel(p[0.6060,-0.4550,0.2686,0.0000,0.0000,0.0000], a = 0.80, v = 0.01, r = 0.0059)
	movel(p[0.6060,-0.4592,0.2797,0.0000,0.0000,0.0000], a = 0.80, v = 0.01, r = 0.0059)
	movel(p[0.6060,-0.4609,0.2914,0.0000,0.0000,0.0000], a = 0.80, v = 0.01, r = 0.0059)
	movel(p[0.6060,-0.4593,0.3031,0.0000,0.0000,0.0000], a = 0.80, v = 0.01, r = 0.0059)
	movel(p[0.6060,-0.4546,0.3140,0.0000,0.0000,0.0000], a = 0.80, v = 0.01, r = 0.0059)
	movel(p[0.6060,-0.4479,0.3238,0.0000,0.0000,0.0000], a = 0.80, v = 0.01, r = 0.0059)
	movel(p[0.6060,-0.4401,0.3327,0.0000,0.0000,0.0000], a = 0.80, v = 0.01, r = 0.0059)
	movel(p[0.6060,-0.4316,0.3410,0.0000,0.0000,0.0000], a = 0.80, v = 0.01, r = 0.0059)
	movel(p[0.6060,-0.4228,0.3490,0.0000,0.0000,0.0000], a = 0.80, v = 0.01, r = 0.0059)
	movel(p[0.6060,-0.4139,0.3569,0.0000,0.0000,0.0000], a = 0.80, v = 0.01, r = 0.0059)
	movel(p[0.6060,-0.4051,0.3649,0.0000,0.0000,0.0000], a = 0.80, v = 0.01, r = 0.0059)
	movel(p[0.6060,-0.3967,0.3733,0.0000,0.0000,0.0000], a = 0.80, v = 0.01, r = 0.0059)
	movel(p[0.6060,-0.3890,0.3824,0.0000,0.0000,0.0000], a = 0.80, v = 0.01, r = 0.0059)
	movel(p[0.6060,-0.3831,0.3926,0.0000,0.0000,0.0000], a = 0.80, v = 0.01, r = 0.0059)
	movel(p[0.6060,-0.3807,0.4042,0.0000,0.0000,0.0000], a = 0.80, v = 0.01, r = 0.0059)
	movel(p[0.6060,-0.3833,0.4157,0.0000,0.0000,0.0000], a = 0.80, v = 0.01, r = 0.0059)
	movel(p[0.6060,-0.3898,0.4256,0.0000,0.0000,0.0000], a = 0.80, v = 0.01, r = 0.0059)
	movel(p[0.6060,-0.3981,0.4341,0.0000,0.0000,0.0000], a = 0.80, v = 0.01, r = 0.0059)
	movel(p[0.6060,-0.4073,0.4415,0.0000,0.0000,0.0000], a = 0.80, v = 0.01, r = 0.0059)
	movel(p[0.6060,-0.4170,0.4484,0.0000,0.0000,0.0000], a = 0.80, v = 0.01, r = 0.0059)
	movel(p[0.6060,-0.4270,0.4548,0.0000,0.0000,0.0000], a = 0.80, v = 0.01, r = 0.0059)
	movel(p[0.6060,-0.4372,0.4610,0.0000,0.0000,0.0000], a = 0.80, v = 0.01, r = 0.0059)
	movel(p[0.6060,-0.4473,0.4672,0.0000,0.0000,0.0000], a = 0.80, v = 0.01, r = 0.0059)
	movel(p[0.6060,-0.4575,0.4734,0.0000,0.0000,0.0000], a = 0.80, v = 0.01, r = 0.0059)
	movel(p[0.6060,-0.4675,0.4798,0.0000,0.0000,0.0000], a = 0.80, v = 0.01, r = 0.0059)
	movel(p[0.6060,-0.4772,0.4866,0.0000,0.0000,0.0000], a = 0.80, v = 0.01, r = 0.0059)
	movel(p[0.6060,-0.4864,0.4941,0.0000,0.0000,0.0000], a = 0.80, v = 0.01, r = 0.0059)
	movel(p[0.6060,-0.4945,0.5028,0.0000,0.0000,0.0000], a = 0.80, v = 0.01, r = 0.0059)
	movel(p[0.6060,-0.4997,0.5134,0.0000,0.0000,0.0000], a = 0.80, v = 0.01, r = 0.0059)
	movel(p[0.6060,-0.4987,0.5251,0.0000,0.0000,0.0000], a = 0.80, v = 0.01, r = 0.0059)
	movel(p[0.6060,-0.4923,0.5350,0.0000,0.0000,0.0000], a = 0.80, v = 0.01, r = 0.0059)
	movel(p[0.6060,-0.4835,0.5429,0.0000,0.0000,0.0000], a = 0.80, v = 0.01, r = 0.0059)
	movel(p[0.6060,-0.4737,0.5497,0.0000,0.0000,0.0000], a = 0.80, v = 0.01, r = 0.0059)
	movel(p[0.6060,-0.4635,0.5557,0.0000,0.0000,0.0000], a = 0.80, v = 0.01, r = 0.0059)
	movel(p[0.6060,-0.4530,0.5613,0.0000,0.0000,0.0000], a = 0.80, v = 0.01, r = 0.0059)
	movel(p[0.6060,-0.4423,0.5665,0.0000,0.0000,0.0000], a = 0.80, v = 0.01, r = 0.0059)
	movel(p[0.6060,-0.4315,0.5716,0.0000,0.0000,0.0000], a = 0.80, v = 0.01, r = 0.0059)
	movel(p[0.6060,-0.4207,0.5765,0.0000,0.0000,0.0000], a = 0.80, v = 0.01, r = 0.0059)
	movel(p[0.6060,-0.4099,0.5815,0.0000,0.0000,0.0000], a = 0.80, v = 0.01, r = 0.0059)
	movel(p[0.6060,-0.3992,0.5865,0.0000,0.0000,0.0000], a = 0.80, v = 0.01, r = 0.0059)
	movel(p[0.6060,-0.3884,0.5916,0.0000,0.0000,0.0000], a = 0.80, v = 0.01, r = 0.0059)
	movel(p[0.6060,-0.3779,0.5970,0.0000,0.0000,0.0000], a = 0.80, v = 0.01, r = 0.0059)
	movel(p[0.6060,-0.3675,0.6028,0.0000,0.0000,0.0000], a = 0.80, v = 0.01, r = 0.0059)
	movel(p[0.6060,-0.3576,0.6094,0.0000,0.0000,0.0000], a = 0.80, v = 0.01, r = 0.0059)
	movel(p[0.6060,-0.3486,0.6171,0.0000,0.0000,0.0000], a = 0.80, v = 0.01, r = 0.0059)
	movel(p[0.6060,-0.3421,0.6270,0.0000,0.0000,0.0000], a = 0.80, v = 0.01, r = 0.0058)
	movel(p[0.6060,-0.3427,0.6385,0.0000,0.0000,0.0000], a = 0.80, v = 0.01, r = 0.0058)
	movel(p[0.6060,-0.3498,0.6480,0.0000,0.0000,0.0000], a = 0.80, v = 0.01, r = 0.0058)
	movel(p[0.6060,-0.3592,0.6552,0.0000,0.0000,0.0000], a = 0.80, v = 0.01, r = 0.0058)
	movel(p[0.6060,-0.3694,0.6613,0.0000,0.0000,0.0000], a = 0.80, v = 0.01, r = 0.0058)
	movel(p[0.6060,-0.3800,0.6666,0.0000,0.0000,0.0000], a = 0.80, v = 0.01, r = 0.0058)
	movel(p[0.6060,-0.3909,0.6714,0.0000,0.0000,0.0000], a = 0.80, v = 0.01, r = 0.0058)
	movel(p[0.6060,-0.4018,0.6760,0.0000,0.0000,0.0000], a = 0.80, v = 0.01, r = 0.0058)
	movel(p[0.6060,-0.4129,0.6804,0.0000,0.0000,0.0000], a = 0.80, v = 0.01, r = 0.0058)
	movel(p[0.6060,-0.4240,0.6846,0.0000,0.0000,0.0000], a = 0.80, v = 0.01, r = 0.0058)
	movel(p[0.6060,-0.4352,0.6887,0.0000,0.0000,0.0000], a = 0.80, v = 0.03, r = 0.0058)
	movel(p[0.6060,-0.4463,0.6928,0.0000,0.0000,0.0000], a = 0.80, v = 0.03, r = 0.0058)
	movel(p[0.6060,-0.4575,0.6969,0.0000,0.0000,0.0000], a = 0.80, v = 0.03, r = 0.0058)
	movel(p[0.6060,-0.4686,0.7011,0.0000,0.0000,0.0000], a = 0.80, v = 0.03, r = 0.0058)
	movel(p[0.6060,-0.4797,0.7054,0.0000,0.0000,0.0000], a = 0.80, v = 0.03, r = 0.0058)
	movel(p[0.6060,-0.4907,0.7098,0.0000,0.0000,0.0000], a = 0.80, v = 0.03, r = 0.0058)
	movel(p[0.6060,-0.5016,0.7146,0.0000,0.0000,0.0000], a = 0.80, v = 0.03, r = 0.0058)
	movel(p[0.6060,-0.5123,0.7198,0.0000,0.0000,0.0000], a = 0.80, v = 0.03, r = 0.0058)
	movel(p[0.6060,-0.5226,0.7257,0.0000,0.0000,0.0000], a = 0.80, v = 0.03, r = 0.0058)
	movel(p[0.6060,-0.5321,0.7328,0.0000,0.0000,0.0000], a = 0.80, v = 0.03, r = 0.0058)
	movel(p[0.6060,-0.5389,0.7424,0.0000,0.0000,0.0000], a = 0.80, v = 0.03, r = 0.0057)
	movel(p[0.6060,-0.5375,0.7538,0.0000,0.0000,0.0000], a = 0.80, v = 0.03, r = 0.0057)
	movel(p[0.6060,-0.5295,0.7624,0.0000,0.0000,0.0000], a = 0.80, v = 0.03, r = 0.0057)
	movel(p[0.6060,-0.5195,0.7689,0.0000,0.0000,0.0000], a = 0.80, v = 0.03, r = 0.0057)
	movel(p[0.6060,-0.5089,0.7743,0.0000,0.0000,0.0000], a = 0.80, v = 0.03, r = 0.0057)
	movel(p[0.6060,-0.4980,0.7790,0.0000,0.0000,0.0000], a = 0.80, v = 0.03, r = 0.0057)
	movel(p[0.6060,-0.4870,0.7833,0.0000,0.0000,0.0000], a = 0.80, v = 0.03, r = 0.0057)
	movel(p[0.6060,-0.4758,0.7874,0.0000,0.0000,0.0000], a = 0.80, v = 0.03, r = 0.0057)
	movel(p[0.6060,-0.4646,0.7912,0.0000,0.0000,0.0000], a = 0.80, v = 0.03, r = 0.0057)
	movel(p[0.6060,-0.4533,0.7949,0.0000,0.0000,0.0000], a = 0.80, v = 0.03, r = 0.0057)
	movel(p[0.6060,-0.4419,0.7985,0.0000,0.0000,0.0000], a = 0.80, v = 0.03, r = 0.0057)
	movel(p[0.6060,-0.4306,0.8020,0.0000,0.0000,0.0000], a = 0.80, v = 0.03, r = 0.0057)
	movel(p[0.6060,-0.3806,0.8020,-0.2618,0.0000,0.0000], a = 0.80, v = 0.03, r = 0.0057)
	movel(p[0.6060,-0.3306,0.8020,-0.5236,0.0000,0.0000], a = 0.80, v = 0.03, r = 0.0057)
	movel(p[0.6060,-0.2806,0.8020,-0.7854,0.0000,0.0000], a = 0.80, v = 0.03, r = 0.0057)
	movel(p[0.6060,-0.2306,0.8020,-1.0472,0.0000,0.0000], a = 0.80, v = 0.03, r = 0.0057)
	movel(p[0.6060,-0.1806,0.8020,-1.3090,0.0000,0.0000], a = 0.80, v = 0.03, r = 0.0057)
	movel(p[0.6060,-0.1306,0.8020,-1.5708,0.0000,0.0000], a = 0.80, v = 0.03, r = 0.0057)
	movel(p[0.6706,-0.1025,0.7623,-1.3090,0.0000,0.0000], a = 0.80, v = 0.03, r = 0.0057)
	movel(p[0.7351,-0.0745,0.7225,-1.0472,0.0000,0.0000], a = 0.80, v = 0.03, r = 0.0057)
	movel(p[0.7997,-0.0465,0.6828,-0.7854,0.0000,0.0000], a = 0.80, v = 0.03, r = 0.0057)
	movel(p[0.8642,-0.0185,0.6430,-0.5236,0.0000,0.0000], a = 0.80, v = 0.03, r = 0.0057)
	movel(p[0.9288,0.0096,0.6033,-0.2618,0.0000,0.0000], a = 0.80, v = 0.03, r = 0.0057)
	movel(p[0.9933,0.0376,0.5635,0.0000,0.0000,0.0000], a = 0.80, v = 0.03, r = 0.0000)
	movel(p[0.8356,0.1287,0.0350,0.0000,0.0000,0.0000], a = 0.80, v = 0.06, r = 0.0101)
	movel(p[0.8335,0.1488,0.0350,0.0000,0.0000,0.0000], a = 0.80, v = 0.06, r = 0.0101)
	movel(p[0.8275,0.1681,0.0351,0.0000,0.0000,0.0000], a = 0.80, v = 0.06, r = 0.0101)
	movel(p[0.8176,0.1858,0.0351,0.0000,0.0000,0.0000], a = 0.80, v = 0.06, r = 0.0101)
	movel(p[0.8045,0.2012,0.0351,0.0000,0.0000,0.0000], a = 0.80, v = 0.06, r = 0.0101)
	movel(p[0.7885,0.2136,0.0352,0.0000,0.0000,0.0000], a = 0.80, v = 0.06, r = 0.0101)
	movel(p[0.7703,0.2225,0.0352,0.0000,0.0000,0.0000], a = 0.80, v = 0.06, r = 0.0101)
	movel(p[0.7507,0.2275,0.0352,0.0000,0.0000,0.0000], a = 0.80, v = 0.06, r = 0.0101)
	movel(p[0.7305,0.2286,0.0353,0.0000,0.0000,0.0000], a = 0.80, v = 0.06, r = 0.0101)
	movel(p[0.7105,0.2255,0.0353,0.0000,0.0000,0.0000], a = 0.80, v = 0.06, r = 0.0101)
	movel(p[0.6915,0.2185,0.0353,0.0000,0.0000,0.0000], a = 0.80, v = 0.06, r = 0.0101)
	movel(p[0.6744,0.2078,0.0354,0.0000,0.0000,0.0000], a = 0.80, v = 0.06, r = 0.0101)
	movel(p[0.6597,0.1938,0.0354,0.0000,0.0000,0.0000], a = 0.80, v = 0.06, r = 0.0101)
	movel(p[0.6481,0.1772,0.0354,0.0000,0.0000,0.0000], a = 0.80, v = 0.06, r = 0.0101)
	movel(p[0.6402,0.1586,0.0355,0.0000,0.0000,0.0000], a = 0.80, v = 0.06, r = 0.0101)
	movel(p[0.6361,0.1388,0.0355,0.0000,0.0000,0.0000], a = 0.80, v = 0.06, r = 0.0101)
	movel(p[0.6361,0.1186,0.0355,0.0000,0.0000,0.0000], a = 0.80, v = 0.06, r = 0.0101)
	movel(p[0.6402,0.0988,0.0355,0.0000,0.0000,0.0000], a = 0.80, v = 0.06, r = 0.0101)
	movel(p[0.6481,0.0802,0.0356,0.0000,0.0000,0.0000], a = 0.80, v = 0.06, r = 0.0101)
	movel(p[0.6597,0.0636,0.0356,0.0000,0.0000,0.0000], a = 0.80, v = 0.06, r = 0.0101)
	movel(p[0.6744,0.0496,0.0356,0.0000,0.0000,0.0000], a = 0.80, v = 0.06, r = 0.0101)
	movel(p[0.6915,0.0389,0.0357,0.0000,0.0000,0.0000], a = 0.80, v = 0.06, r = 0.0101)
	movel(p[0.7105,0.0319,0.0357,0.0000,0.0000,0.0000], a = 0.80, v = 0.06, r = 0.0101)
	movel(p[0.7305,0.0288,0.0357,0.0000,0.0000,0.0000], a = 0.80, v = 0.06, r = 0.0101)
	movel(p[0.7507,0.0298,0.0358,0.0000,0.0000,0.0000], a = 0.80, v = 0.06, r = 0.0101)
	movel(p[0.7703,0.0349,0.0358,0.0000,0.0000,0.0000], a = 0.80, v = 0.06, r = 0.0101)
	movel(p[0.7885,0.0438,0.0358,0.0000,0.0000,0.0000], a = 0.80, v = 0.06, r = 0.0101)
	movel(p[0.8045,0.0562,0.0359,0.0000,0.0000,0.0000], a = 0.80, v = 0.06, r = 0.0101)
	movel(p[0.8176,0.0716,0.0359,0.0000,0.0000,0.0000], a = 0.80, v = 0.06, r = 0.0101)
	movel(p[0.8275,0.0893,0.0359,0.0000,0.0000,0.0000], a = 0.80, v = 0.06, r = 0.0101)
	movel(p[0.8335,0.1086,0.0360,0.0000,0.0000,0.0000], a = 0.80, v = 0.06, r = 0.0101)
	movel(p[0.8356,0.1287,0.0500,0.0000,0.0000,0.0000], a = 0.80, v = 0.01, r = 0.0101)
	movel(p[0.8336,0.1485,0.0595,0.0000,0.0000,0.0000], a = 0.80, v = 0.01, r = 0.0101)
	movel(p[0.8277,0.1675,0.0690,0.0000,0.0000,0.0000], a = 0.80, v = 0.01, r = 0.0101)
	movel(p[0.8182,0.1850,0.0786,0.0000,0.0000,0.0000], a = 0.80, v = 0.01, r = 0.0101)
	movel(p[0.8054,0.2003,0.0881,0.0000,0.0000,0.0000], a = 0.80, v = 0.01, r = 0.0101)
	movel(p[0.7898,0.2127,0.0976,0.0000,0.0000,0.0000], a = 0.80, v = 0.01, r = 0.0101)
	movel(p[0.7721,0.2218,0.1071,0.0000,0.0000,0.0000], a = 0.80, v = 0.01, r = 0.0101)
	movel(p[0.7530,0.2272,0.1166,0.0000,0.0000,0.0000], a = 0.80, v = 0.01, r = 0.0101)
	movel(p[0.7331,0.2287,0.1262,0.0000,0.0000,0.0000], a = 0.80, v = 0.01, r = 0.0101)
	movel(p[0.7134,0.2262,0.1357,0.0000,0.0000,0.0000], a = 0.80, v = 0.01, r = 0.0101)
	movel(p[0.6945,0.2199,0.1452,0.0000,0.0000,0.0000], a = 0.80, v = 0.01, r = 0.0101)
	movel(p[0.6772,0.2099,0.1547,0.0000,0.0000,0.0000], a = 0.80, v = 0.01, r = 0.0101)
	movel(p[0.6623,0.1968,0.1643,0.0000,0.0000,0.0000], a = 0.80, v = 0.01, r = 0.0101)
	movel(p[0.6503,0.1809,0.1738,0.0000,0.0000,0.0000], a = 0.80, v = 0.01, r = 0.0101)
	movel(p[0.6416,0.1630,0.1833,0.0000,0.0000,0.0000], a = 0.80, v = 0.01, r = 0.0101)
	movel(p[0.6367,0.1437,0.1928,0.0000,0.0000,0.0000], a = 0.80, v = 0.01, r = 0.0101)
	movel(p[0.6357,0.1238,0.2023,0.0000,0.0000,0.0000], a = 0.80, v = 0.01, r = 0.0101)
	movel(p[0.6386,0.1041,0.2119,0.0000,0.0000,0.0000], a = 0.80, v = 0.01, r = 0.0101)
	movel(p[0.6454,0.0854,0.2214,0.0000,0.0000,0.0000], a = 0.80, v = 0.01, r = 0.0101)
	movel(p[0.6558,0.0684,0.2309,0.0000,0.0000,0.0000], a = 0.80, v = 0.01, r = 0.0101)
	movel(p[0.6693,0.0538,0.2404,0.0000,0.0000,0.0000], a = 0.80, v = 0.01, r = 0.0101)
	movel(p[0.6855,0.0421,0.2499,0.0000,0.0000,0.0000], a = 0.80, v = 0.01, r = 0.0101)
	movel(p[0.7036,0.0339,0.2595,0.0000,0.0000,0.0000], a = 0.80, v = 0.01, r = 0.0101)
	movel(p[0.7230,0.0295,0.2690,0.0000,0.0000,0.0000], a = 0.80, v = 0.01, r = 0.0101)
	movel(p[0.7429,0.0290,0.2785,0.0000,0.0000,0.0000], a = 0.80, v = 0.01, r = 0.0101)
	movel(p[0.7625,0.0324,0.2880,0.0000,0.0000,0.0000], a = 0.80, v = 0.01, r = 0.0101)
	movel(p[0.7811,0.0396,0.2976,0.0000,0.0000,0.0000], a = 0.80, v = 0.01, r = 0.0101)
	movel(p[0.7978,0.0504,0.3071,0.0000,0.0000,0.0000], a = 0.80, v = 0.01, r = 0.0101)
	movel(p[0.8121,0.0643,0.3166,0.0000,0.0000,0.0000], a = 0.80, v = 0.01, r = 0.0101)
	movel(p[0.8233,0.0807,0.3261,0.0000,0.0000,0.0000], a = 0.80, v = 0.01, r = 0.0101)
	movel(p[0.8311,0.0991,0.3356,0.0000,0.0000,0.0000], a = 0.80, v = 0.01, r = 0.0101)
	movel(p[0.8351,0.1186,0.3452,0.0000,0.0000,0.0000], a = 0.80, v = 0.01, r = 0.0101)
	movel(p[0.8351,0.1385,0.3547,0.0000,0.0000,0.0000], a = 0.80, v = 0.03, r = 0.0101)
	movel(p[0.8312,0.1580,0.3642,0.0000,0.0000,0.0000], a = 0.80, v = 0.03, r = 0.0101)
	movel(p[0.8235,0.1764,0.3737,0.0000,0.0000,0.0000], a = 0.80, v = 0.03, r = 0.0101)
	movel(p[0.8123,0.1928,0.3832,0.0000,0.0000,0.0000], a = 0.80, v = 0.03, r = 0.0101)
	movel(p[0.7981,0.2068,0.3928,0.0000,0.0000,0.0000], a = 0.80, v = 0.03, r = 0.0101)
	movel(p[0.7814,0.2176,0.4023,0.0000,0.0000,0.0000], a = 0.80, v = 0.03, r = 0.0101)
	movel(p[0.7628,0.2249,0.4118,0.0000,0.0000,0.0000], a = 0.80, v = 0.03, r = 0.0101)
	movel(p[0.7432,0.2284,0.4213,0.0000,0.0000,0.0000], a = 0.80, v = 0.03, r = 0.0101)
	movel(p[0.7233,0.2279,0.4309,0.0000,0.0000,0.0000], a = 0.80, v = 0.03, r = 0.0101)
	movel(p[0.7039,0.2235,0.4404,0.0000,0.0000,0.0000], a = 0.80, v = 0.03, r = 0.0101)
	movel(p[0.6858,0.2154,0.4499,0.0000,0.0000,0.0000], a = 0.80, v = 0.03, r = 0.0101)
	movel(p[0.6696,0.2038,0.4594,0.0000,0.0000,0.0000], a = 0.80, v = 0.03, r = 0.0101)
	movel(p[0.6560,0.1893,0.4689,0.0000,0.0000,0.0000], a = 0.80, v = 0.03, r = 0.0101)
	movel(p[0.6456,0.1723,0.4785,0.0000,0.0000,0.0000], a = 0.80, v = 0.03, r = 0.0101)
	movel(p[0.6387,0.1536,0.4880,0.0000,0.0000,0.0000], a = 0.80, v = 0.03, r = 0.0101)
	movel(p[0.6357,0.1339,0.4975,0.0000,0.0000,0.0000], a = 0.80, v = 0.03, r = 0.0101)
	movel(p[0.6366,0.1140,0.5070,0.0000,0.0000,0.0000], a = 0.80, v = 0.03, r = 0.0101)
	movel(p[0.6415,0.0947,0.5165,0.0000,0.0000,0.0000], a = 0.80, v = 0.03, r = 0.0101)
	movel(p[0.6501,0.0768,0.5261,0.0000,0.0000,0.0000], a = 0.80, v = 0.03, r = 0.0101)
	movel(p[0.6621,0.0609,0.5356,0.0000,0.0000,0.0000], a = 0.80, v = 0.03, r = 0.0101)
	movel(p[0.6770,0.0477,0.5451,0.0000,0.0000,0.0000], a = 0.80, v = 0.03, r = 0.0101)
	movel(p[0.6942,0.0377,0.5546,0.0000,0.0000,0.0000], a = 0.80, v = 0.03, r = 0.0101)
	movel(p[0.7130,0.0313,0.5642,0.0000,0.0000,0.0000], a = 0.80, v = 0.03, r = 0.0101)
	movel(p[0.7328,0.0287,0.5737,0.0000,0.0000,0.0000], a = 0.80, v = 0.03, r = 0.0101)
	movel(p[0.7526,0.0302,0.5832,0.0000,0.0000,0.0000], a = 0.80, v = 0.03, r = 0.0101)
	movel(p[0.7718,0.0355,0.5927,0.0000,0.0000,0.0000], a = 0.80, v = 0.03, r = 0.0101)
	movel(p[0.7896,0.0445,0.6022,0.0000,0.0000,0.0000], a = 0.80, v = 0.03, r = 0.0101)
	movel(p[0.8052,0.0569,0.6118,0.0000,0.0000,0.0000], a = 0.80, v = 0.03, r = 0.0101)
	movel(p[0.8180,0.0721,0.6213,0.0000,0.0000,0.0000], a = 0.80, v = 0.03, r = 0.0101)
	movel(p[0.8276,0.0896,0.6308,0.0000,0.0000,0.0000], a = 0.80, v = 0.03, r = 0.0101)
	movel(p[0.8335,0.1086,0.6403,0.0000,0.0000,0.0000], a = 0.80, v = 0.03, r = 0.0101)
	movel(p[0.8335,0.1586,0.6403,-0.2618,0.0000,0.0000], a = 0.80, v = 0.03, r = 0.0101)
	movel(p[0.8335,0.2086,0.6403,-0.5236,0.0000,0.0000], a = 0.80, v = 0.03, r = 0.0101)
	movel(p[0.8335,0.2586,0.6403,-0.7854,0.0000,0.0000], a = 0.80, v = 0.03, r = 0.0101)
	movel(p[0.8335,0.3086,0.6403,-1.0472,0.0000,0.0000], a = 0.80, v = 0.03, r = 0.0101)
	movel(p[0.8335,0.3586,0.6403,-1.3090,0.0000,0.0000], a = 0.80, v = 0.03, r = 0.0101)
	movel(p[0.8335,0.4086,0.6403,-1.5708,0.0000,0.0000], a = 0.80, v = 0.03, r = 0.0101)
	movel(p[0.8602,0.3946,0.6275,-1.3090,0.0000,0.0000], a = 0.80, v = 0.03, r = 0.0101)
	movel(p[0.8868,0.3807,0.6147,-1.0472,0.0000,0.0000], a = 0.80, v = 0.03, r = 0.0101)
	movel(p[0.9134,0.3668,0.6019,-0.7854,0.0000,0.0000], a = 0.80, v = 0.03, r = 0.0101)
	movel(p[0.9401,0.3528,0.5891,-0.5236,0.0000,0.0000], a = 0.80, v = 0.03, r = 0.0101)
	movel(p[0.9667,0.3389,0.5763,-0.2618,0.0000,0.0000], a = 0.80, v = 0.03, r = 0.0101)
	movel(p[0.9933,0.3250,0.5635,0.0000,0.0000,0.0000], a = 0.80, v = 0.03, r = 0.0000)
	
end

my_script()
