
def my_script():
	movel(p[0.8356,0.1287,0.0350,0.0000,0.0000,0.0000], a = 0.80, v = 0.060, r = 0.0101)
	movel(p[0.8335,0.1488,0.0350,0.0000,0.0000,0.0000], a = 0.80, v = 0.060, r = 0.0101)
	movel(p[0.8275,0.1681,0.0351,0.0000,0.0000,0.0000], a = 0.80, v = 0.060, r = 0.0101)
	movel(p[0.8176,0.1858,0.0351,0.0000,0.0000,0.0000], a = 0.80, v = 0.060, r = 0.0101)
	movel(p[0.8045,0.2012,0.0351,0.0000,0.0000,0.0000], a = 0.80, v = 0.060, r = 0.0101)
	movel(p[0.7885,0.2136,0.0352,0.0000,0.0000,0.0000], a = 0.80, v = 0.060, r = 0.0101)
	movel(p[0.7703,0.2225,0.0352,0.0000,0.0000,0.0000], a = 0.80, v = 0.060, r = 0.0101)
	movel(p[0.7507,0.2275,0.0352,0.0000,0.0000,0.0000], a = 0.80, v = 0.060, r = 0.0101)
	movel(p[0.7305,0.2286,0.0353,0.0000,0.0000,0.0000], a = 0.80, v = 0.060, r = 0.0101)
	movel(p[0.7105,0.2255,0.0353,0.0000,0.0000,0.0000], a = 0.80, v = 0.060, r = 0.0101)
	movel(p[0.6915,0.2185,0.0353,0.0000,0.0000,0.0000], a = 0.80, v = 0.060, r = 0.0101)
	movel(p[0.6744,0.2078,0.0354,0.0000,0.0000,0.0000], a = 0.80, v = 0.060, r = 0.0101)
	movel(p[0.6597,0.1938,0.0354,0.0000,0.0000,0.0000], a = 0.80, v = 0.060, r = 0.0101)
	movel(p[0.6481,0.1772,0.0354,0.0000,0.0000,0.0000], a = 0.80, v = 0.060, r = 0.0101)
	movel(p[0.6402,0.1586,0.0355,0.0000,0.0000,0.0000], a = 0.80, v = 0.060, r = 0.0101)
	movel(p[0.6361,0.1388,0.0355,0.0000,0.0000,0.0000], a = 0.80, v = 0.060, r = 0.0101)
	movel(p[0.6361,0.1186,0.0355,0.0000,0.0000,0.0000], a = 0.80, v = 0.060, r = 0.0101)
	movel(p[0.6402,0.0988,0.0355,0.0000,0.0000,0.0000], a = 0.80, v = 0.060, r = 0.0101)
	movel(p[0.6481,0.0802,0.0356,0.0000,0.0000,0.0000], a = 0.80, v = 0.060, r = 0.0101)
	movel(p[0.6597,0.0636,0.0356,0.0000,0.0000,0.0000], a = 0.80, v = 0.060, r = 0.0101)
	movel(p[0.6744,0.0496,0.0356,0.0000,0.0000,0.0000], a = 0.80, v = 0.060, r = 0.0101)
	movel(p[0.6915,0.0389,0.0357,0.0000,0.0000,0.0000], a = 0.80, v = 0.060, r = 0.0101)
	movel(p[0.7105,0.0319,0.0357,0.0000,0.0000,0.0000], a = 0.80, v = 0.060, r = 0.0101)
	movel(p[0.7305,0.0288,0.0357,0.0000,0.0000,0.0000], a = 0.80, v = 0.060, r = 0.0101)
	movel(p[0.7507,0.0298,0.0358,0.0000,0.0000,0.0000], a = 0.80, v = 0.060, r = 0.0101)
	movel(p[0.7703,0.0349,0.0358,0.0000,0.0000,0.0000], a = 0.80, v = 0.060, r = 0.0101)
	movel(p[0.7885,0.0438,0.0358,0.0000,0.0000,0.0000], a = 0.80, v = 0.060, r = 0.0101)
	movel(p[0.8045,0.0562,0.0359,0.0000,0.0000,0.0000], a = 0.80, v = 0.060, r = 0.0101)
	movel(p[0.8176,0.0716,0.0359,0.0000,0.0000,0.0000], a = 0.80, v = 0.060, r = 0.0101)
	movel(p[0.8275,0.0893,0.0359,0.0000,0.0000,0.0000], a = 0.80, v = 0.060, r = 0.0101)
	movel(p[0.8335,0.1086,0.0360,0.0000,0.0000,0.0000], a = 0.80, v = 0.060, r = 0.0101)
	movel(p[0.8356,0.1287,0.0500,0.0000,0.0000,0.0000], a = 0.80, v = 0.015, r = 0.0101)
	movel(p[0.8336,0.1485,0.0595,0.0000,0.0000,0.0000], a = 0.80, v = 0.015, r = 0.0101)
	movel(p[0.8277,0.1675,0.0690,0.0000,0.0000,0.0000], a = 0.80, v = 0.015, r = 0.0101)
	movel(p[0.8182,0.1850,0.0786,0.0000,0.0000,0.0000], a = 0.80, v = 0.015, r = 0.0101)
	movel(p[0.8054,0.2003,0.0881,0.0000,0.0000,0.0000], a = 0.80, v = 0.015, r = 0.0101)
	movel(p[0.7898,0.2127,0.0976,0.0000,0.0000,0.0000], a = 0.80, v = 0.015, r = 0.0101)
	movel(p[0.7721,0.2218,0.1071,0.0000,0.0000,0.0000], a = 0.80, v = 0.015, r = 0.0101)
	movel(p[0.7530,0.2272,0.1166,0.0000,0.0000,0.0000], a = 0.80, v = 0.015, r = 0.0101)
	movel(p[0.7331,0.2287,0.1262,0.0000,0.0000,0.0000], a = 0.80, v = 0.015, r = 0.0101)
	movel(p[0.7134,0.2262,0.1357,0.0000,0.0000,0.0000], a = 0.80, v = 0.015, r = 0.0101)
	movel(p[0.6945,0.2199,0.1452,0.0000,0.0000,0.0000], a = 0.80, v = 0.015, r = 0.0101)
	movel(p[0.6772,0.2099,0.1547,0.0000,0.0000,0.0000], a = 0.80, v = 0.015, r = 0.0101)
	movel(p[0.6623,0.1968,0.1643,0.0000,0.0000,0.0000], a = 0.80, v = 0.015, r = 0.0101)
	movel(p[0.6503,0.1809,0.1738,0.0000,0.0000,0.0000], a = 0.80, v = 0.015, r = 0.0101)
	movel(p[0.6416,0.1630,0.1833,0.0000,0.0000,0.0000], a = 0.80, v = 0.015, r = 0.0101)
	movel(p[0.6367,0.1437,0.1928,0.0000,0.0000,0.0000], a = 0.80, v = 0.015, r = 0.0101)
	movel(p[0.6357,0.1238,0.2023,0.0000,0.0000,0.0000], a = 0.80, v = 0.015, r = 0.0101)
	movel(p[0.6386,0.1041,0.2119,0.0000,0.0000,0.0000], a = 0.80, v = 0.015, r = 0.0101)
	movel(p[0.6454,0.0854,0.2214,0.0000,0.0000,0.0000], a = 0.80, v = 0.015, r = 0.0101)
	movel(p[0.6558,0.0684,0.2309,0.0000,0.0000,0.0000], a = 0.80, v = 0.015, r = 0.0101)
	movel(p[0.6693,0.0538,0.2404,0.0000,0.0000,0.0000], a = 0.80, v = 0.015, r = 0.0101)
	movel(p[0.6855,0.0421,0.2499,0.0000,0.0000,0.0000], a = 0.80, v = 0.015, r = 0.0101)
	movel(p[0.7036,0.0339,0.2595,0.0000,0.0000,0.0000], a = 0.80, v = 0.015, r = 0.0101)
	movel(p[0.7230,0.0295,0.2690,0.0000,0.0000,0.0000], a = 0.80, v = 0.015, r = 0.0101)
	movel(p[0.7429,0.0290,0.2785,0.0000,0.0000,0.0000], a = 0.80, v = 0.015, r = 0.0101)
	movel(p[0.7625,0.0324,0.2880,0.0000,0.0000,0.0000], a = 0.80, v = 0.015, r = 0.0101)
	movel(p[0.7811,0.0396,0.2976,0.0000,0.0000,0.0000], a = 0.80, v = 0.015, r = 0.0101)
	movel(p[0.7978,0.0504,0.3071,0.0000,0.0000,0.0000], a = 0.80, v = 0.015, r = 0.0101)
	movel(p[0.8121,0.0643,0.3166,0.0000,0.0000,0.0000], a = 0.80, v = 0.015, r = 0.0101)
	movel(p[0.8233,0.0807,0.3261,0.0000,0.0000,0.0000], a = 0.80, v = 0.015, r = 0.0101)
	movel(p[0.8311,0.0991,0.3356,0.0000,0.0000,0.0000], a = 0.80, v = 0.015, r = 0.0101)
	movel(p[0.8351,0.1186,0.3452,0.0000,0.0000,0.0000], a = 0.80, v = 0.015, r = 0.0101)
	movel(p[0.8351,0.1385,0.3547,0.0000,0.0000,0.0000], a = 0.80, v = 0.005, r = 0.0101)
	movel(p[0.8312,0.1580,0.3642,0.0000,0.0000,0.0000], a = 0.80, v = 0.005, r = 0.0101)
	movel(p[0.8235,0.1764,0.3737,0.0000,0.0000,0.0000], a = 0.80, v = 0.005, r = 0.0101)
	movel(p[0.8123,0.1928,0.3832,0.0000,0.0000,0.0000], a = 0.80, v = 0.005, r = 0.0101)
	movel(p[0.7981,0.2068,0.3928,0.0000,0.0000,0.0000], a = 0.80, v = 0.005, r = 0.0101)
	movel(p[0.7814,0.2176,0.4023,0.0000,0.0000,0.0000], a = 0.80, v = 0.005, r = 0.0101)
	movel(p[0.7628,0.2249,0.4118,0.0000,0.0000,0.0000], a = 0.80, v = 0.005, r = 0.0101)
	movel(p[0.7432,0.2284,0.4213,0.0000,0.0000,0.0000], a = 0.80, v = 0.005, r = 0.0101)
	movel(p[0.7233,0.2279,0.4309,0.0000,0.0000,0.0000], a = 0.80, v = 0.005, r = 0.0101)
	movel(p[0.7039,0.2235,0.4404,0.0000,0.0000,0.0000], a = 0.80, v = 0.005, r = 0.0101)
	movel(p[0.6858,0.2154,0.4499,0.0000,0.0000,0.0000], a = 0.80, v = 0.005, r = 0.0101)
	movel(p[0.6696,0.2038,0.4594,0.0000,0.0000,0.0000], a = 0.80, v = 0.005, r = 0.0101)
	movel(p[0.6560,0.1893,0.4689,0.0000,0.0000,0.0000], a = 0.80, v = 0.005, r = 0.0101)
	movel(p[0.6456,0.1723,0.4785,0.0000,0.0000,0.0000], a = 0.80, v = 0.005, r = 0.0101)
	movel(p[0.6387,0.1536,0.4880,0.0000,0.0000,0.0000], a = 0.80, v = 0.005, r = 0.0101)
	movel(p[0.6357,0.1339,0.4975,0.0000,0.0000,0.0000], a = 0.80, v = 0.005, r = 0.0101)
	movel(p[0.6366,0.1140,0.5070,0.0000,0.0000,0.0000], a = 0.80, v = 0.005, r = 0.0101)
	movel(p[0.6415,0.0947,0.5165,0.0000,0.0000,0.0000], a = 0.80, v = 0.005, r = 0.0101)
	movel(p[0.6501,0.0768,0.5261,0.0000,0.0000,0.0000], a = 0.80, v = 0.005, r = 0.0101)
	movel(p[0.6621,0.0609,0.5356,0.0000,0.0000,0.0000], a = 0.80, v = 0.005, r = 0.0101)
	movel(p[0.6770,0.0477,0.5451,0.0000,0.0000,0.0000], a = 0.80, v = 0.005, r = 0.0101)
	movel(p[0.6942,0.0377,0.5546,0.0000,0.0000,0.0000], a = 0.80, v = 0.005, r = 0.0101)
	movel(p[0.7130,0.0313,0.5642,0.0000,0.0000,0.0000], a = 0.80, v = 0.005, r = 0.0101)
	movel(p[0.7328,0.0287,0.5737,0.0000,0.0000,0.0000], a = 0.80, v = 0.005, r = 0.0101)
	movel(p[0.7526,0.0302,0.5832,0.0000,0.0000,0.0000], a = 0.80, v = 0.005, r = 0.0101)
	movel(p[0.7718,0.0355,0.5927,0.0000,0.0000,0.0000], a = 0.80, v = 0.005, r = 0.0101)
	movel(p[0.7896,0.0445,0.6022,0.0000,0.0000,0.0000], a = 0.80, v = 0.005, r = 0.0101)
	movel(p[0.8052,0.0569,0.6118,0.0000,0.0000,0.0000], a = 0.80, v = 0.005, r = 0.0101)
	movel(p[0.8180,0.0721,0.6213,0.0000,0.0000,0.0000], a = 0.80, v = 0.005, r = 0.0101)
	movel(p[0.8276,0.0896,0.6308,0.0000,0.0000,0.0000], a = 0.80, v = 0.005, r = 0.0101)
	movel(p[0.8335,0.1086,0.6403,0.0000,0.0000,0.0000], a = 0.80, v = 0.005, r = 0.0101)
	movel(p[0.8335,0.1419,0.6403,-0.2618,0.0000,0.0000], a = 0.80, v = 0.005, r = 0.0101)
	movel(p[0.8335,0.1752,0.6403,-0.5236,0.0000,0.0000], a = 0.80, v = 0.005, r = 0.0101)
	movel(p[0.8335,0.2086,0.6403,-0.7854,0.0000,0.0000], a = 0.80, v = 0.005, r = 0.0101)
	movel(p[0.8335,0.2419,0.6403,-1.0472,0.0000,0.0000], a = 0.80, v = 0.005, r = 0.0101)
	movel(p[0.8335,0.2752,0.6403,-1.3090,0.0000,0.0000], a = 0.80, v = 0.005, r = 0.0101)
	movel(p[0.8335,0.3086,0.6403,-1.5708,0.0000,0.0000], a = 0.80, v = 0.005, r = 0.0101)
	movel(p[0.8602,0.3049,0.6275,-1.3090,0.0000,0.0000], a = 0.80, v = 0.005, r = 0.0101)
	movel(p[0.8868,0.3013,0.6147,-1.0472,0.0000,0.0000], a = 0.80, v = 0.005, r = 0.0101)
	movel(p[0.9134,0.2977,0.6019,-0.7854,0.0000,0.0000], a = 0.80, v = 0.005, r = 0.0101)
	movel(p[0.9401,0.2941,0.5891,-0.5236,0.0000,0.0000], a = 0.80, v = 0.005, r = 0.0101)
	movel(p[0.9667,0.2905,0.5763,-0.2618,0.0000,0.0000], a = 0.80, v = 0.005, r = 0.0101)
	movel(p[0.9933,0.2869,0.5635,0.0000,0.0000,0.0000], a = 0.80, v = 0.005, r = 0.0000)
	
end

my_script()
