
def my_script():
	movel(p[0.7060,-0.3360,0.0350,0.0000,0.0000,0.0000], a = 0.80, v = 0.060, r = 0.0156)
	movel(p[0.7011,-0.3051,0.0350,0.0000,0.0000,0.0000], a = 0.80, v = 0.060, r = 0.0156)
	movel(p[0.6869,-0.2772,0.0351,0.0000,0.0000,0.0000], a = 0.80, v = 0.060, r = 0.0156)
	movel(p[0.6648,-0.2551,0.0352,0.0000,0.0000,0.0000], a = 0.80, v = 0.060, r = 0.0156)
	movel(p[0.6369,-0.2409,0.0352,0.0000,0.0000,0.0000], a = 0.80, v = 0.060, r = 0.0156)
	movel(p[0.6060,-0.2360,0.0352,0.0000,0.0000,0.0000], a = 0.80, v = 0.060, r = 0.0156)
	movel(p[0.5751,-0.2409,0.0353,0.0000,0.0000,0.0000], a = 0.80, v = 0.060, r = 0.0156)
	movel(p[0.5472,-0.2551,0.0353,0.0000,0.0000,0.0000], a = 0.80, v = 0.060, r = 0.0156)
	movel(p[0.5251,-0.2772,0.0354,0.0000,0.0000,0.0000], a = 0.80, v = 0.060, r = 0.0156)
	movel(p[0.5109,-0.3051,0.0355,0.0000,0.0000,0.0000], a = 0.80, v = 0.060, r = 0.0156)
	movel(p[0.5060,-0.3360,0.0355,0.0000,0.0000,0.0000], a = 0.80, v = 0.060, r = 0.0156)
	movel(p[0.5109,-0.3669,0.0355,0.0000,0.0000,0.0000], a = 0.80, v = 0.060, r = 0.0156)
	movel(p[0.5251,-0.3948,0.0356,0.0000,0.0000,0.0000], a = 0.80, v = 0.060, r = 0.0156)
	movel(p[0.5472,-0.4169,0.0357,0.0000,0.0000,0.0000], a = 0.80, v = 0.060, r = 0.0156)
	movel(p[0.5751,-0.4311,0.0357,0.0000,0.0000,0.0000], a = 0.80, v = 0.060, r = 0.0156)
	movel(p[0.6060,-0.4360,0.0357,0.0000,0.0000,0.0000], a = 0.80, v = 0.060, r = 0.0156)
	movel(p[0.6369,-0.4311,0.0358,0.0000,0.0000,0.0000], a = 0.80, v = 0.060, r = 0.0156)
	movel(p[0.6648,-0.4169,0.0358,0.0000,0.0000,0.0000], a = 0.80, v = 0.060, r = 0.0156)
	movel(p[0.6869,-0.3948,0.0359,0.0000,0.0000,0.0000], a = 0.80, v = 0.060, r = 0.0156)
	movel(p[0.7011,-0.3669,0.0360,0.0000,0.0000,0.0000], a = 0.80, v = 0.060, r = 0.0156)
	movel(p[0.6060,-0.3360,0.0350,0.0000,0.0000,0.0000], a = 0.80, v = 0.060, r = 0.0156)
	movel(p[0.6060,-0.3360,0.0850,0.0000,0.0000,0.0000], a = 0.80, v = 0.060, r = 0.0100)
	movel(p[0.6060,-0.3360,0.1050,0.0000,0.0000,0.0000], a = 0.80, v = 0.005, r = 0.0056)
	movel(p[0.6060,-0.3352,0.1161,-0.1323,0.0000,-0.0000], a = 0.80, v = 0.005, r = 0.0056)
	movel(p[0.6060,-0.3332,0.1271,-0.2284,0.0000,-0.0000], a = 0.80, v = 0.005, r = 0.0056)
	movel(p[0.6060,-0.3304,0.1379,-0.2682,0.0000,0.0000], a = 0.80, v = 0.005, r = 0.0056)
	movel(p[0.6060,-0.3275,0.1487,-0.2426,0.0000,-0.0000], a = 0.80, v = 0.005, r = 0.0056)
	movel(p[0.6060,-0.3253,0.1597,-0.1451,0.0000,-0.0000], a = 0.80, v = 0.005, r = 0.0056)
	movel(p[0.6060,-0.3245,0.1708,0.0208,-0.0000,-0.0000], a = 0.80, v = 0.005, r = 0.0056)
	movel(p[0.6060,-0.3259,0.1819,0.2221,-0.0000,-0.0000], a = 0.80, v = 0.005, r = 0.0056)
	movel(p[0.6060,-0.3294,0.1925,0.4033,-0.0000,-0.0000], a = 0.80, v = 0.005, r = 0.0056)
	movel(p[0.6060,-0.3344,0.2024,0.5315,-0.0000,-0.0000], a = 0.80, v = 0.005, r = 0.0056)
	movel(p[0.6060,-0.3405,0.2118,0.6048,-0.0000,-0.0000], a = 0.80, v = 0.005, r = 0.0056)
	movel(p[0.6060,-0.3470,0.2209,0.6291,-0.0000,-0.0000], a = 0.80, v = 0.005, r = 0.0056)
	movel(p[0.6060,-0.3535,0.2300,0.6040,0.0000,0.0000], a = 0.80, v = 0.005, r = 0.0056)
	movel(p[0.6060,-0.3595,0.2394,0.5167,0.0000,0.0000], a = 0.80, v = 0.005, r = 0.0056)
	movel(p[0.6060,-0.3642,0.2495,0.3360,0.0000,0.0000], a = 0.80, v = 0.005, r = 0.0056)
	movel(p[0.6060,-0.3663,0.2604,0.0307,0.0000,0.0000], a = 0.80, v = 0.005, r = 0.0056)
	movel(p[0.6060,-0.3647,0.2714,-0.3263,0.0000,-0.0000], a = 0.80, v = 0.005, r = 0.0056)
	movel(p[0.6060,-0.3596,0.2814,-0.5931,0.0000,-0.0000], a = 0.80, v = 0.005, r = 0.0056)
	movel(p[0.6060,-0.3526,0.2900,-0.7525,0.0000,0.0000], a = 0.80, v = 0.005, r = 0.0056)
	movel(p[0.6060,-0.3446,0.2978,-0.8438,0.0000,0.0000], a = 0.80, v = 0.005, r = 0.0056)
	movel(p[0.6060,-0.3360,0.3050,-0.8936,-0.0000,0.0000], a = 0.80, v = 0.005, r = 0.0056)
	movel(p[0.6060,-0.3272,0.3119,-0.9149,0.0000,0.0000], a = 0.80, v = 0.005, r = 0.0056)
	movel(p[0.6060,-0.3184,0.3187,-0.9117,-0.0000,0.0000], a = 0.80, v = 0.005, r = 0.0056)
	movel(p[0.6060,-0.3096,0.3256,-0.8816,0.0000,-0.0000], a = 0.80, v = 0.005, r = 0.0056)
	movel(p[0.6060,-0.3012,0.3330,-0.8130,0.0000,0.0000], a = 0.80, v = 0.005, r = 0.0056)
	movel(p[0.6060,-0.2936,0.3411,-0.6740,-0.0000,0.0000], a = 0.80, v = 0.005, r = 0.0056)
	movel(p[0.6060,-0.2878,0.3507,-0.3841,0.0000,0.0000], a = 0.80, v = 0.005, r = 0.0055)
	movel(p[0.6060,-0.2863,0.3616,0.1337,-0.0000,-0.0000], a = 0.80, v = 0.005, r = 0.0055)
	movel(p[0.6060,-0.2904,0.3719,0.5892,-0.0000,-0.0000], a = 0.80, v = 0.005, r = 0.0055)
	movel(p[0.6060,-0.2978,0.3802,0.8244,0.0000,0.0000], a = 0.80, v = 0.005, r = 0.0055)
	movel(p[0.6060,-0.3064,0.3873,0.9456,0.0000,0.0000], a = 0.80, v = 0.005, r = 0.0055)
	movel(p[0.6060,-0.3157,0.3935,1.0143,0.0000,0.0000], a = 0.80, v = 0.005, r = 0.0055)
	movel(p[0.6060,-0.3253,0.3991,1.0548,-0.0000,-0.0000], a = 0.80, v = 0.005, r = 0.0055)
	movel(p[0.6060,-0.3351,0.4045,1.0775,0.0000,0.0000], a = 0.80, v = 0.005, r = 0.0055)
	movel(p[0.6060,-0.3450,0.4098,1.0872,0.0000,0.0000], a = 0.80, v = 0.005, r = 0.0055)
	movel(p[0.6060,-0.3549,0.4150,1.0853,-0.0000,-0.0000], a = 0.80, v = 0.005, r = 0.0055)
	movel(p[0.6060,-0.3647,0.4202,1.0711,0.0000,0.0000], a = 0.80, v = 0.005, r = 0.0055)
	movel(p[0.6060,-0.3745,0.4257,1.0408,0.0000,0.0000], a = 0.80, v = 0.005, r = 0.0055)
	movel(p[0.6060,-0.3840,0.4316,0.9856,-0.0000,-0.0000], a = 0.80, v = 0.005, r = 0.0055)
	movel(p[0.6060,-0.3930,0.4382,0.8822,0.0000,0.0000], a = 0.80, v = 0.005, r = 0.0055)
	movel(p[0.6060,-0.4009,0.4461,0.6610,0.0000,0.0000], a = 0.80, v = 0.005, r = 0.0055)
	movel(p[0.6060,-0.4055,0.4561,0.1217,0.0000,0.0000], a = 0.80, v = 0.005, r = 0.0055)
	movel(p[0.6060,-0.4028,0.4667,-0.5590,-0.0000,0.0000], a = 0.80, v = 0.005, r = 0.0055)
	movel(p[0.6060,-0.3953,0.4750,-0.8717,0.0000,0.0000], a = 0.80, v = 0.005, r = 0.0055)
	movel(p[0.6060,-0.3862,0.4815,-1.0111,-0.0000,0.0000], a = 0.80, v = 0.005, r = 0.0055)
	movel(p[0.6060,-0.3765,0.4870,-1.0863,-0.0000,0.0000], a = 0.80, v = 0.005, r = 0.0055)
	movel(p[0.6060,-0.3665,0.4919,-1.1316,0.0000,-0.0000], a = 0.80, v = 0.005, r = 0.0055)
	movel(p[0.6060,-0.3563,0.4965,-1.1603,0.0000,-0.0000], a = 0.80, v = 0.005, r = 0.0055)
	movel(p[0.6060,-0.3461,0.5009,-1.1785,0.0000,-0.0000], a = 0.80, v = 0.005, r = 0.0055)
	movel(p[0.6060,-0.3357,0.5051,-1.1888,0.0000,0.0000], a = 0.80, v = 0.005, r = 0.0055)
	movel(p[0.6060,-0.3253,0.5092,-1.1928,0.0000,-0.0000], a = 0.80, v = 0.005, r = 0.0055)
	movel(p[0.6060,-0.3150,0.5134,-1.1909,-0.0000,0.0000], a = 0.80, v = 0.005, r = 0.0055)
	movel(p[0.6060,-0.3046,0.5176,-1.1826,-0.0000,0.0000], a = 0.80, v = 0.005, r = 0.0055)
	movel(p[0.6060,-0.2943,0.5219,-1.1666,0.0000,0.0000], a = 0.80, v = 0.005, r = 0.0055)
	movel(p[0.6060,-0.2841,0.5264,-1.1398,0.0000,-0.0000], a = 0.80, v = 0.005, r = 0.0055)
	movel(p[0.6060,-0.2740,0.5312,-1.0960,-0.0000,0.0000], a = 0.80, v = 0.005, r = 0.0055)
	movel(p[0.6060,-0.2643,0.5367,-1.0197,0.0000,0.0000], a = 0.80, v = 0.005, r = 0.0055)
	movel(p[0.6060,-0.2552,0.5432,-0.8658,0.0000,-0.0000], a = 0.80, v = 0.005, r = 0.0055)
	movel(p[0.6060,-0.2480,0.5517,-0.4539,0.0000,-0.0000], a = 0.80, v = 0.005, r = 0.0054)
	movel(p[0.6060,-0.2479,0.5624,0.4359,0.0000,0.0000], a = 0.80, v = 0.005, r = 0.0054)
	movel(p[0.6060,-0.2550,0.5709,0.8821,0.0000,0.0000], a = 0.80, v = 0.005, r = 0.0054)
	movel(p[0.6060,-0.2643,0.5772,1.0471,0.0000,0.0000], a = 0.80, v = 0.005, r = 0.0054)
	movel(p[0.6060,-0.2742,0.5823,1.1294,0.0000,0.0000], a = 0.80, v = 0.005, r = 0.0054)
	movel(p[0.6060,-0.2844,0.5868,1.1781,0.0000,0.0000], a = 0.80, v = 0.005, r = 0.0054)
	movel(p[0.6060,-0.2948,0.5909,1.2095,0.0000,0.0000], a = 0.80, v = 0.005, r = 0.0054)
	movel(p[0.6060,-0.3053,0.5947,1.2308,0.0000,0.0000], a = 0.80, v = 0.005, r = 0.0054)
	movel(p[0.6060,-0.3158,0.5984,1.2452,0.0000,0.0000], a = 0.80, v = 0.005, r = 0.0054)
	movel(p[0.6060,-0.3264,0.6019,1.2547,-0.0000,-0.0000], a = 0.80, v = 0.005, r = 0.0054)
	movel(p[0.6060,-0.3371,0.6053,1.2601,0.0000,0.0000], a = 0.80, v = 0.005, r = 0.0054)
	movel(p[0.6060,-0.3477,0.6088,1.2620,-0.0000,-0.0000], a = 0.80, v = 0.005, r = 0.0054)
	movel(p[0.6060,-0.3584,0.6122,1.2606,0.0000,0.0000], a = 0.80, v = 0.005, r = 0.0054)
	movel(p[0.6060,-0.3690,0.6156,1.2556,0.0000,0.0000], a = 0.80, v = 0.005, r = 0.0054)
	movel(p[0.6060,-0.3796,0.6191,1.2465,-0.0000,-0.0000], a = 0.80, v = 0.005, r = 0.0054)
	movel(p[0.6060,-0.3902,0.6227,1.2321,0.0000,0.0000], a = 0.80, v = 0.005, r = 0.0054)
	movel(p[0.6060,-0.4007,0.6265,1.2103,0.0000,0.0000], a = 0.80, v = 0.005, r = 0.0054)
	movel(p[0.6060,-0.4111,0.6306,1.1772,-0.0000,-0.0000], a = 0.80, v = 0.005, r = 0.0054)
	movel(p[0.6060,-0.4213,0.6352,1.1235,0.0000,0.0000], a = 0.80, v = 0.005, r = 0.0054)
	movel(p[0.6060,-0.4311,0.6404,1.0255,0.0000,0.0000], a = 0.80, v = 0.005, r = 0.0054)
	movel(p[0.6060,-0.4400,0.6471,0.7950,0.0000,0.0000], a = 0.80, v = 0.005, r = 0.0054)
	movel(p[0.6060,-0.4451,0.6568,0.0085,-0.0000,-0.0000], a = 0.80, v = 0.005, r = 0.0054)
	movel(p[0.6060,-0.4401,0.6664,-0.8049,-0.0000,0.0000], a = 0.80, v = 0.1, r = 0.0054)
	movel(p[0.6060,-0.4311,0.6729,-1.0442,0.0000,0.0000], a = 0.80, v = 0.005, r = 0.0054)
	movel(p[0.6060,-0.4211,0.6780,-1.1456,0.0000,0.0000], a = 0.80, v = 0.005, r = 0.0054)
	movel(p[0.6060,-0.4108,0.6823,-1.2018,0.0000,0.0000], a = 0.80, v = 0.005, r = 0.0054)
	movel(p[0.6060,-0.4003,0.6861,-1.2373,0.0000,-0.0000], a = 0.80, v = 0.005, r = 0.0054)
	movel(p[0.6060,-0.3897,0.6896,-1.2616,0.0000,0.0000], a = 0.80, v = 0.005, r = 0.0054)
	movel(p[0.6060,-0.3790,0.6929,-1.2791,0.0000,0.0000], a = 0.80, v = 0.005, r = 0.0054)
	movel(p[0.6060,-0.3683,0.6961,-1.2908,0.0000,-0.0000], a = 0.80, v = 0.005, r = 0.0054)
	movel(p[0.6060,-0.3576,0.6991,-1.2981,0.0000,0.0000], a = 0.80, v = 0.005, r = 0.0054)
	movel(p[0.6060,-0.3468,0.7021,-1.3050,0.0000,-0.0000], a = 0.80, v = 0.005, r = 0.0054)
	movel(p[0.6060,-0.3360,0.7050,-1.3135,0.0000,0.0000], a = 0.80, v = 0.005, r = 0.0054)
	movel(p[0.6060,-0.3027,0.7050,-1.3564,0.0000,0.0000], a = 0.80, v = 0.005, r = 0.0054)
	movel(p[0.6060,-0.2693,0.7050,-1.3993,0.0000,0.0000], a = 0.80, v = 0.005, r = 0.0054)
	movel(p[0.6060,-0.2360,0.7050,-1.4422,0.0000,0.0000], a = 0.80, v = 0.005, r = 0.0054)
	movel(p[0.6060,-0.2027,0.7050,-1.4850,0.0000,0.0000], a = 0.80, v = 0.005, r = 0.0054)
	movel(p[0.6060,-0.1693,0.7050,-1.5279,0.0000,0.0000], a = 0.80, v = 0.005, r = 0.0054)
	movel(p[0.6060,-0.1360,0.7050,-1.5708,0.0000,0.0000], a = 0.80, v = 0.005, r = 0.0054)
	movel(p[0.6706,-0.1071,0.6814,-1.3090,0.0000,0.0000], a = 0.80, v = 0.005, r = 0.0054)
	movel(p[0.7351,-0.0781,0.6578,-1.0472,0.0000,0.0000], a = 0.80, v = 0.005, r = 0.0054)
	movel(p[0.7997,-0.0492,0.6343,-0.7854,0.0000,0.0000], a = 0.80, v = 0.005, r = 0.0054)
	movel(p[0.8642,-0.0203,0.6107,-0.5236,0.0000,0.0000], a = 0.80, v = 0.005, r = 0.0054)
	movel(p[0.9288,0.0087,0.5871,-0.2618,0.0000,0.0000], a = 0.80, v = 0.005, r = 0.0054)
	movel(p[0.9933,0.0376,0.5635,0.0000,0.0000,0.0000], a = 0.80, v = 0.005, r = 0.0000)
	movel(p[0.8356,0.1287,0.0350,0.0000,0.0000,0.0000], a = 0.80, v = 0.060, r = 0.0101)
	movel(p[0.8335,0.1488,0.0350,0.0000,0.0000,0.0000], a = 0.80, v = 0.060, r = 0.0101)
	movel(p[0.8275,0.1681,0.0351,0.0000,0.0000,0.0000], a = 0.80, v = 0.060, r = 0.0101)
	movel(p[0.8176,0.1858,0.0351,0.0000,0.0000,0.0000], a = 0.80, v = 0.060, r = 0.0101)
	movel(p[0.8045,0.2012,0.0351,0.0000,0.0000,0.0000], a = 0.80, v = 0.060, r = 0.0101)
	movel(p[0.7885,0.2136,0.0352,0.0000,0.0000,0.0000], a = 0.80, v = 0.060, r = 0.0101)
	movel(p[0.7703,0.2225,0.0352,0.0000,0.0000,0.0000], a = 0.80, v = 0.060, r = 0.0101)
	movel(p[0.7507,0.2275,0.0352,0.0000,0.0000,0.0000], a = 0.80, v = 0.060, r = 0.0101)
	movel(p[0.7305,0.2286,0.0353,0.0000,0.0000,0.0000], a = 0.80, v = 0.060, r = 0.0101)
	movel(p[0.7105,0.2255,0.0353,0.0000,0.0000,0.0000], a = 0.80, v = 0.060, r = 0.0101)
	movel(p[0.6915,0.2185,0.0353,0.0000,0.0000,0.0000], a = 0.80, v = 0.060, r = 0.0101)
	movel(p[0.6744,0.2078,0.0354,0.0000,0.0000,0.0000], a = 0.80, v = 0.060, r = 0.0101)
	movel(p[0.6597,0.1938,0.0354,0.0000,0.0000,0.0000], a = 0.80, v = 0.060, r = 0.0101)
	movel(p[0.6481,0.1772,0.0354,0.0000,0.0000,0.0000], a = 0.80, v = 0.060, r = 0.0101)
	movel(p[0.6402,0.1586,0.0355,0.0000,0.0000,0.0000], a = 0.80, v = 0.060, r = 0.0101)
	movel(p[0.6361,0.1388,0.0355,0.0000,0.0000,0.0000], a = 0.80, v = 0.060, r = 0.0101)
	movel(p[0.6361,0.1186,0.0355,0.0000,0.0000,0.0000], a = 0.80, v = 0.060, r = 0.0101)
	movel(p[0.6402,0.0988,0.0355,0.0000,0.0000,0.0000], a = 0.80, v = 0.060, r = 0.0101)
	movel(p[0.6481,0.0802,0.0356,0.0000,0.0000,0.0000], a = 0.80, v = 0.060, r = 0.0101)
	movel(p[0.6597,0.0636,0.0356,0.0000,0.0000,0.0000], a = 0.80, v = 0.060, r = 0.0101)
	movel(p[0.6744,0.0496,0.0356,0.0000,0.0000,0.0000], a = 0.80, v = 0.060, r = 0.0101)
	movel(p[0.6915,0.0389,0.0357,0.0000,0.0000,0.0000], a = 0.80, v = 0.060, r = 0.0101)
	movel(p[0.7105,0.0319,0.0357,0.0000,0.0000,0.0000], a = 0.80, v = 0.060, r = 0.0101)
	movel(p[0.7305,0.0288,0.0357,0.0000,0.0000,0.0000], a = 0.80, v = 0.060, r = 0.0101)
	movel(p[0.7507,0.0298,0.0358,0.0000,0.0000,0.0000], a = 0.80, v = 0.060, r = 0.0101)
	movel(p[0.7703,0.0349,0.0358,0.0000,0.0000,0.0000], a = 0.80, v = 0.060, r = 0.0101)
	movel(p[0.7885,0.0438,0.0358,0.0000,0.0000,0.0000], a = 0.80, v = 0.060, r = 0.0101)
	movel(p[0.8045,0.0562,0.0359,0.0000,0.0000,0.0000], a = 0.80, v = 0.060, r = 0.0101)
	movel(p[0.8176,0.0716,0.0359,0.0000,0.0000,0.0000], a = 0.80, v = 0.060, r = 0.0101)
	movel(p[0.8275,0.0893,0.0359,0.0000,0.0000,0.0000], a = 0.80, v = 0.060, r = 0.0101)
	movel(p[0.8335,0.1086,0.0360,0.0000,0.0000,0.0000], a = 0.80, v = 0.060, r = 0.0101)
	movel(p[0.8356,0.1287,0.0500,0.0000,0.0000,0.0000], a = 0.80, v = 0.005, r = 0.0101)
	movel(p[0.8336,0.1485,0.0595,0.0000,0.0000,0.0000], a = 0.80, v = 0.005, r = 0.0101)
	movel(p[0.8277,0.1675,0.0690,0.0000,0.0000,0.0000], a = 0.80, v = 0.005, r = 0.0101)
	movel(p[0.8182,0.1850,0.0786,0.0000,0.0000,0.0000], a = 0.80, v = 0.005, r = 0.0101)
	movel(p[0.8054,0.2003,0.0881,0.0000,0.0000,0.0000], a = 0.80, v = 0.005, r = 0.0101)
	movel(p[0.7898,0.2127,0.0976,0.0000,0.0000,0.0000], a = 0.80, v = 0.005, r = 0.0101)
	movel(p[0.7721,0.2218,0.1071,0.0000,0.0000,0.0000], a = 0.80, v = 0.005, r = 0.0101)
	movel(p[0.7530,0.2272,0.1166,0.0000,0.0000,0.0000], a = 0.80, v = 0.005, r = 0.0101)
	movel(p[0.7331,0.2287,0.1262,0.0000,0.0000,0.0000], a = 0.80, v = 0.005, r = 0.0101)
	movel(p[0.7134,0.2262,0.1357,0.0000,0.0000,0.0000], a = 0.80, v = 0.005, r = 0.0101)
	movel(p[0.6945,0.2199,0.1452,0.0000,0.0000,0.0000], a = 0.80, v = 0.005, r = 0.0101)
	movel(p[0.6772,0.2099,0.1547,0.0000,0.0000,0.0000], a = 0.80, v = 0.005, r = 0.0101)
	movel(p[0.6623,0.1968,0.1643,0.0000,0.0000,0.0000], a = 0.80, v = 0.005, r = 0.0101)
	movel(p[0.6503,0.1809,0.1738,0.0000,0.0000,0.0000], a = 0.80, v = 0.005, r = 0.0101)
	movel(p[0.6416,0.1630,0.1833,0.0000,0.0000,0.0000], a = 0.80, v = 0.005, r = 0.0101)
	movel(p[0.6367,0.1437,0.1928,0.0000,0.0000,0.0000], a = 0.80, v = 0.005, r = 0.0101)
	movel(p[0.6357,0.1238,0.2023,0.0000,0.0000,0.0000], a = 0.80, v = 0.005, r = 0.0101)
	movel(p[0.6386,0.1041,0.2119,0.0000,0.0000,0.0000], a = 0.80, v = 0.005, r = 0.0101)
	movel(p[0.6454,0.0854,0.2214,0.0000,0.0000,0.0000], a = 0.80, v = 0.005, r = 0.0101)
	movel(p[0.6558,0.0684,0.2309,0.0000,0.0000,0.0000], a = 0.80, v = 0.005, r = 0.0101)
	movel(p[0.6693,0.0538,0.2404,0.0000,0.0000,0.0000], a = 0.80, v = 0.005, r = 0.0101)
	movel(p[0.6855,0.0421,0.2499,0.0000,0.0000,0.0000], a = 0.80, v = 0.005, r = 0.0101)
	movel(p[0.7036,0.0339,0.2595,0.0000,0.0000,0.0000], a = 0.80, v = 0.005, r = 0.0101)
	movel(p[0.7230,0.0295,0.2690,0.0000,0.0000,0.0000], a = 0.80, v = 0.005, r = 0.0101)
	movel(p[0.7429,0.0290,0.2785,0.0000,0.0000,0.0000], a = 0.80, v = 0.005, r = 0.0101)
	movel(p[0.7625,0.0324,0.2880,0.0000,0.0000,0.0000], a = 0.80, v = 0.005, r = 0.0101)
	movel(p[0.7811,0.0396,0.2976,0.0000,0.0000,0.0000], a = 0.80, v = 0.005, r = 0.0101)
	movel(p[0.7978,0.0504,0.3071,0.0000,0.0000,0.0000], a = 0.80, v = 0.005, r = 0.0101)
	movel(p[0.8121,0.0643,0.3166,0.0000,0.0000,0.0000], a = 0.80, v = 0.005, r = 0.0101)
	movel(p[0.8233,0.0807,0.3261,0.0000,0.0000,0.0000], a = 0.80, v = 0.005, r = 0.0101)
	movel(p[0.8311,0.0991,0.3356,0.0000,0.0000,0.0000], a = 0.80, v = 0.005, r = 0.0101)
	movel(p[0.8351,0.1186,0.3452,0.0000,0.0000,0.0000], a = 0.80, v = 0.005, r = 0.0101)
	movel(p[0.8351,0.1385,0.3547,0.0000,0.0000,0.0000], a = 0.80, v = 0.005, r = 0.0101)
	movel(p[0.8312,0.1580,0.3642,0.0000,0.0000,0.0000], a = 0.80, v = 0.005, r = 0.0101)
	movel(p[0.8235,0.1764,0.3737,0.0000,0.0000,0.0000], a = 0.80, v = 0.005, r = 0.0101)
	movel(p[0.8123,0.1928,0.3832,0.0000,0.0000,0.0000], a = 0.80, v = 0.005, r = 0.0101)
	movel(p[0.7981,0.2068,0.3928,0.0000,0.0000,0.0000], a = 0.80, v = 0.005, r = 0.0101)
	movel(p[0.7814,0.2176,0.4023,0.0000,0.0000,0.0000], a = 0.80, v = 0.005, r = 0.0101)
	movel(p[0.7628,0.2249,0.4118,0.0000,0.0000,0.0000], a = 0.80, v = 0.005, r = 0.0101)
	movel(p[0.7432,0.2284,0.4213,0.0000,0.0000,0.0000], a = 0.80, v = 0.005, r = 0.0101)
	movel(p[0.7233,0.2279,0.4309,0.0000,0.0000,0.0000], a = 0.80, v = 0.005, r = 0.0101)
	movel(p[0.7039,0.2235,0.4404,0.0000,0.0000,0.0000], a = 0.80, v = 0.005, r = 0.0101)
	movel(p[0.6858,0.2154,0.4499,0.0000,0.0000,0.0000], a = 0.80, v = 0.005, r = 0.0101)
	movel(p[0.6696,0.2038,0.4594,0.0000,0.0000,0.0000], a = 0.80, v = 0.005, r = 0.0101)
	movel(p[0.6560,0.1893,0.4689,0.0000,0.0000,0.0000], a = 0.80, v = 0.005, r = 0.0101)
	movel(p[0.6456,0.1723,0.4785,0.0000,0.0000,0.0000], a = 0.80, v = 0.005, r = 0.0101)
	movel(p[0.6387,0.1536,0.4880,0.0000,0.0000,0.0000], a = 0.80, v = 0.005, r = 0.0101)
	movel(p[0.6357,0.1339,0.4975,0.0000,0.0000,0.0000], a = 0.80, v = 0.005, r = 0.0101)
	movel(p[0.6366,0.1140,0.5070,0.0000,0.0000,0.0000], a = 0.80, v = 0.005, r = 0.0101)
	movel(p[0.6415,0.0947,0.5165,0.0000,0.0000,0.0000], a = 0.80, v = 0.005, r = 0.0101)
	movel(p[0.6501,0.0768,0.5261,0.0000,0.0000,0.0000], a = 0.80, v = 0.005, r = 0.0101)
	movel(p[0.6621,0.0609,0.5356,0.0000,0.0000,0.0000], a = 0.80, v = 0.005, r = 0.0101)
	movel(p[0.6770,0.0477,0.5451,0.0000,0.0000,0.0000], a = 0.80, v = 0.005, r = 0.0101)
	movel(p[0.6942,0.0377,0.5546,0.0000,0.0000,0.0000], a = 0.80, v = 0.005, r = 0.0101)
	movel(p[0.7130,0.0313,0.5642,0.0000,0.0000,0.0000], a = 0.80, v = 0.005, r = 0.0101)
	movel(p[0.7328,0.0287,0.5737,0.0000,0.0000,0.0000], a = 0.80, v = 0.005, r = 0.0101)
	movel(p[0.7526,0.0302,0.5832,0.0000,0.0000,0.0000], a = 0.80, v = 0.005, r = 0.0101)
	movel(p[0.7718,0.0355,0.5927,0.0000,0.0000,0.0000], a = 0.80, v = 0.005, r = 0.0101)
	movel(p[0.7896,0.0445,0.6022,0.0000,0.0000,0.0000], a = 0.80, v = 0.005, r = 0.0101)
	movel(p[0.8052,0.0569,0.6118,0.0000,0.0000,0.0000], a = 0.80, v = 0.005, r = 0.0101)
	movel(p[0.8180,0.0721,0.6213,0.0000,0.0000,0.0000], a = 0.80, v = 0.005, r = 0.0101)
	movel(p[0.8276,0.0896,0.6308,0.0000,0.0000,0.0000], a = 0.80, v = 0.005, r = 0.0101)
	movel(p[0.8335,0.1086,0.6403,0.0000,0.0000,0.0000], a = 0.80, v = 0.005, r = 0.0101)
	movel(p[0.8335,0.1419,0.6403,-0.2618,0.0000,0.0000], a = 0.80, v = 0.1, r = 0.0101)
	movel(p[0.8335,0.1752,0.6403,-0.5236,0.0000,0.0000], a = 0.80, v = 0.005, r = 0.0101)
	movel(p[0.8335,0.2086,0.6403,-0.7854,0.0000,0.0000], a = 0.80, v = 0.005, r = 0.0101)
	movel(p[0.8335,0.2419,0.6403,-1.0472,0.0000,0.0000], a = 0.80, v = 0.005, r = 0.0101)
	movel(p[0.8335,0.2752,0.6403,-1.3090,0.0000,0.0000], a = 0.80, v = 0.005, r = 0.0101)
	movel(p[0.8335,0.3086,0.6403,-1.5708,0.0000,0.0000], a = 0.80, v = 0.005, r = 0.0101)
	movel(p[0.8602,0.3049,0.6275,-1.3090,0.0000,0.0000], a = 0.80, v = 0.005, r = 0.0101)
	movel(p[0.8868,0.3013,0.6147,-1.0472,0.0000,0.0000], a = 0.80, v = 0.005, r = 0.0101)
	movel(p[0.9134,0.2977,0.6019,-0.7854,0.0000,0.0000], a = 0.80, v = 0.005, r = 0.0101)
	movel(p[0.9401,0.2941,0.5891,-0.5236,0.0000,0.0000], a = 0.80, v = 0.005, r = 0.0101)
	movel(p[0.9667,0.2905,0.5763,-0.2618,0.0000,0.0000], a = 0.80, v = 0.005, r = 0.0101)
	movel(p[0.9933,0.2869,0.5635,0.0000,0.0000,0.0000], a = 0.80, v = 0.005, r = 0.0000)
	
end

my_script()
